; generated by PrusaSlicer 2.4.2+linux-x64-GTK3 on 2023-04-27 at 02:56:30 UTC

; 

; external perimeters extrusion width = 0.40mm
; perimeters extrusion width = 0.40mm
; infill extrusion width = 0.40mm
; solid infill extrusion width = 0.40mm
; top infill extrusion width = 0.40mm
; first layer extrusion width = 0.45mm

M107
;TYPE:Custom
xgcode 1.0
M118 X35.05 Y26.60 Z21.65 T0
M140 S79 T0
M104 S237 T0
M104 S0 T1
M107
M106 S70 ;kickstart partfan
G90 ;absolute
G28 ;autohome all
M132 X Y Z A B
G1 Z50.00 F420
G161 X Y F3300 ;home XY to max
M7 T0 ;stabilize
M6 T0 ;stabilize
M108 T0
M106 S38
;purgeline
G1 Z.20 F420
G92 E0
G1 X-39.15 Y-74.5 F7140
G1 X70 Y-74.5 E17.7325 F600
G1 X70 Y-74.5 E18.2518
G1 X70 Y-74.5 F7140
G1 X70 Y-74.5 E18.8720 F600
G1 X75 Y-74.5 E19.1576
M106 S25
G21 ; set units to millimeters
G90 ; use absolute coordinates
M82 ; use absolute distances for extrusion
G92 E0
; Filament gcode
M107
;LAYER_CHANGE
;Z:0.35
;HEIGHT:0.35
G1 Z.35 F7200
G1 E-5.5 F2100
G92 E0
G1 X-2.941 Y0 F7200
G1 E5.5 F2100
;TYPE:Skirt/Brim
;WIDTH:0.45
G1 F900
G1 X-2.941 Y-15 E6.31827
G1 X-2.559 Y-15.845 E6.36885
G1 X-1.816 Y-16.125 E6.41213
G1 X11.811 Y-16.125 E7.15555
G1 X12.656 Y-15.742 E7.20613
G1 X12.936 Y-15 E7.24942
G1 X12.936 Y15 E8.88596
G1 X12.554 Y15.845 E8.93654
G1 X11.811 Y16.125 E8.97982
G1 X-1.816 Y16.125 E9.72324
G1 X-2.661 Y15.742 E9.77382
G1 X-2.941 Y15 E9.8171
G1 X-2.941 Y.06 E10.6321
G1 X-2.566 Y.06 F7200
G1 F900
G1 X-2.566 Y-15 E11.45364
G1 X-2.193 Y-15.648 E11.49446
G1 X-1.816 Y-15.75 E11.51572
G1 X11.811 Y-15.75 E12.25914
G1 X12.46 Y-15.376 E12.29996
G1 X12.561 Y-15 E12.32122
G1 X12.561 Y15 E13.95776
G1 X12.188 Y15.648 E13.99858
G1 X11.811 Y15.75 E14.01985
G1 X-1.816 Y15.75 E14.76326
G1 X-2.465 Y15.376 E14.80408
G1 X-2.566 Y15 E14.82535
G1 X-2.566 Y.12 E15.63707
G1 X-2.191 Y.12 F7200
G1 F900
G1 X-2.191 Y-15 E16.46189
G1 X-1.816 Y-15.375 E16.49081
G1 X11.811 Y-15.375 E17.23422
G1 X12.186 Y-15 E17.26314
G1 X12.186 Y15 E18.89968
G1 X11.811 Y15.375 E18.92861
G1 X-1.816 Y15.375 E19.67202
G1 X-2.191 Y15 E19.70094
G1 X-2.191 Y.18 E20.50939
G1 E15.00939 F2100
G92 E0
G1 X-.842 Y14.025 F7200
G1 E5.5 F2100
;TYPE:Perimeter
G1 F900
G1 X-.842 Y-14.025 E7.03018
G1 X10.426 Y-14.023 E7.64486
G1 X10.185 Y-13.347 E7.68398
G1 X9.088 Y-8.97 E7.93013
G1 X8.426 Y-4.507 E8.17629
G1 X8.206 Y0 E8.42243
G1 X8.426 Y4.507 E8.66856
G1 X9.088 Y8.97 E8.91473
G1 X10.185 Y13.347 E9.16088
G1 X10.427 Y14.025 E9.20015
G1 X-.782 Y14.025 E9.81161
G1 X-1.217 Y14.4 F7200
G1 F900
G1 X-1.217 Y-14.4 E11.3827
G1 X10.959 Y-14.397 E12.04686
G1 X10.544 Y-13.238 E12.11401
G1 X9.457 Y-8.897 E12.35815
G1 X8.8 Y-4.47 E12.60231
G1 X8.581 Y0 E12.84643
G1 X8.8 Y4.47 E13.09056
G1 X9.457 Y8.897 E13.33472
G1 X10.544 Y13.238 E13.57885
G1 X10.96 Y14.4 E13.64616
G1 X-1.157 Y14.4 E14.30711
G1 X-1.591 Y14.775 F7200
;TYPE:External perimeter
G1 F900
G1 X-1.591 Y-14.775 E15.9191
G1 X11.491 Y-14.772 E16.63276
G1 X10.903 Y-13.129 E16.72794
G1 X9.825 Y-8.824 E16.97006
G1 X9.173 Y-4.433 E17.21221
G1 X8.956 Y0 E17.45433
G1 X9.173 Y4.433 E17.69645
G1 X9.825 Y8.824 E17.93859
G1 X10.903 Y13.129 E18.18072
G1 X11.492 Y14.775 E18.27606
G1 X-1.531 Y14.775 E18.9865
G1 X-1.407 Y14.42 F7200
G1 E13.4865 F2100
G92 E0
G1 X10.022 Y-13.314 F7200
G1 E5.5 F2100
;TYPE:Solid infill
;WIDTH:0.450321
G1 F900
G1 X9.631 Y-13.704 E5.53014
G1 X9.101 Y-13.704 E5.55912
G1 X9.776 Y-13.028 E5.61129
G1 X9.67 Y-12.604 E5.63518
G1 X8.57 Y-13.704 E5.72013
G1 X8.039 Y-13.704 E5.7491
G1 X9.564 Y-12.18 E5.86683
G1 X9.457 Y-11.755 E5.89071
G1 X7.508 Y-13.705 E6.04121
G1 X6.978 Y-13.705 E6.07019
G1 X9.351 Y-11.331 E6.25346
G1 X9.245 Y-10.907 E6.27734
G1 X6.447 Y-13.705 E6.49339
G1 X5.916 Y-13.705 E6.52236
G1 X9.139 Y-10.482 E6.77118
G1 X9.032 Y-10.058 E6.79507
G1 X5.385 Y-13.705 E7.07666
G1 X4.855 Y-13.705 E7.10564
G1 X8.926 Y-9.634 E7.42
G1 X8.82 Y-9.209 E7.44389
G1 X4.324 Y-13.705 E7.79103
G1 X3.793 Y-13.705 E7.82
G1 X8.735 Y-8.763 E8.20162
G1 X8.667 Y-8.301 E8.22712
G1 X3.262 Y-13.705 E8.64443
G1 X2.732 Y-13.706 E8.6734
G1 X8.598 Y-7.839 E9.1264
G1 X8.53 Y-7.377 E9.1519
G1 X2.201 Y-13.706 E9.64058
G1 X1.67 Y-13.706 E9.66956
G1 X8.461 Y-6.915 E10.19393
G1 X8.393 Y-6.453 E10.21943
G1 X1.139 Y-13.706 E10.77949
G1 X.609 Y-13.706 E10.80846
G1 X8.324 Y-5.99 E11.40421
G1 X8.256 Y-5.528 E11.42971
G1 X.078 Y-13.706 E12.06115
G1 X-.453 Y-13.706 E12.09013
G1 X8.187 Y-5.066 E12.75725
G1 X8.119 Y-4.604 E12.78275
G1 X-.523 Y-13.246 E13.45
G1 X-.523 Y-12.715 E13.47897
G1 X8.088 Y-4.105 E14.14382
G1 X8.063 Y-3.599 E14.17148
G1 X-.523 Y-12.185 E14.83441
G1 X-.523 Y-11.654 E14.86339
G1 X8.038 Y-3.093 E15.52441
G1 X8.013 Y-2.587 E15.55206
G1 X-.523 Y-11.123 E16.21118
G1 X-.523 Y-10.593 E16.24015
G1 X7.989 Y-2.081 E16.89735
G1 X7.964 Y-1.575 E16.925
G1 X-.523 Y-10.062 E17.58029
G1 X-.523 Y-9.531 E17.60926
G1 X7.939 Y-1.069 E18.26264
G1 X7.914 Y-.564 E18.29029
G1 X-.523 Y-9.001 E18.94175
G1 X-.523 Y-8.47 E18.97072
G1 X7.889 Y-.058 E19.62027
G1 X7.911 Y.494 E19.65043
G1 X-.523 Y-7.94 E20.30163
G1 X-.523 Y-7.409 E20.3306
G1 X7.938 Y1.052 E20.98391
G1 X7.965 Y1.61 E21.01441
G1 X-.523 Y-6.878 E21.66983
G1 X-.523 Y-6.348 E21.6988
G1 X7.993 Y2.168 E22.35633
G1 X8.02 Y2.726 E22.38683
G1 X-.523 Y-5.817 E23.04647
G1 X-.523 Y-5.286 E23.07544
G1 X8.047 Y3.284 E23.73719
G1 X8.075 Y3.842 E23.76769
G1 X-.523 Y-4.756 E24.43155
G1 X-.523 Y-4.225 E24.46052
G1 X8.102 Y4.4 E25.12649
G1 X8.178 Y5.007 E25.15989
G1 X-.523 Y-3.695 E25.83175
G1 X-.523 Y-3.164 E25.86072
G1 X8.271 Y5.63 E26.53971
G1 X8.363 Y6.253 E26.5741
G1 X-.523 Y-2.633 E27.26023
G1 X-.523 Y-2.103 E27.2892
G1 X8.456 Y6.876 E27.98247
G1 X8.548 Y7.499 E28.01686
G1 X-.523 Y-1.572 E28.71726
G1 X-.523 Y-1.041 E28.74623
G1 X8.64 Y8.122 E29.45377
G1 X8.733 Y8.745 E29.48815
G1 X-.523 Y-.511 E30.20283
G1 X-.523 Y.02 E30.2318
G1 X8.871 Y9.414 E30.95713
G1 X9.048 Y10.122 E30.99698
G1 X-.523 Y.55 E31.73601
G1 X-.523 Y1.081 E31.76498
G1 X9.226 Y10.83 E32.5177
G1 X9.403 Y11.538 E32.55754
G1 X-.523 Y1.612 E33.32395
G1 X-.523 Y2.142 E33.35292
G1 X9.58 Y12.246 E34.13303
G1 X9.758 Y12.953 E34.17287
G1 X-.523 Y2.673 E34.96666
G1 X-.523 Y3.204 E34.99563
G1 X9.975 Y13.707 E35.8064
G1 X9.449 Y13.707 E35.83509
G1 X-.523 Y3.734 E36.60509
G1 X-.523 Y4.265 E36.63406
G1 X8.919 Y13.707 E37.36309
G1 X8.388 Y13.707 E37.39206
G1 X-.523 Y4.795 E38.08011
G1 X-.523 Y5.326 E38.10908
G1 X7.857 Y13.707 E38.75617
G1 X7.327 Y13.707 E38.78514
G1 X-.523 Y5.857 E39.39125
G1 X-.523 Y6.387 E39.42022
G1 X6.796 Y13.707 E39.98536
G1 X6.266 Y13.707 E40.01433
G1 X-.523 Y6.918 E40.5385
G1 X-.523 Y7.449 E40.56747
G1 X5.735 Y13.707 E41.05067
G1 X5.204 Y13.707 E41.07964
G1 X-.523 Y7.979 E41.52187
G1 X-.523 Y8.51 E41.55084
G1 X4.674 Y13.707 E41.9521
G1 X4.143 Y13.707 E41.98107
G1 X-.523 Y9.04 E42.34135
G1 X-.523 Y9.571 E42.37032
G1 X3.612 Y13.707 E42.68964
G1 X3.082 Y13.707 E42.71861
G1 X-.523 Y10.102 E42.99695
G1 X-.523 Y10.632 E43.02592
G1 X2.551 Y13.707 E43.26329
G1 X2.021 Y13.707 E43.29226
G1 X-.523 Y11.163 E43.48866
G1 X-.523 Y11.694 E43.51763
G1 X1.49 Y13.707 E43.67306
G1 X.959 Y13.707 E43.70203
G1 X-.523 Y12.224 E43.81648
G1 X-.523 Y12.755 E43.84545
G1 X.429 Y13.707 E43.91894
G1 X-.102 Y13.707 E43.94791
G1 X-.692 Y13.117 E43.99345
;LAYER_CHANGE
;Z:0.65
;HEIGHT:0.3
G1 Z.65 F7200
M140 S0 ; set bed temperature
G1 X-.945 Y14.129
;TYPE:Perimeter
;WIDTH:0.4
G1 F2400
G1 X-.945 Y-14.128 E45.17629
G1 X10.572 Y-14.121 E45.65839
G1 X10.284 Y-13.317 E45.69412
G1 X9.19 Y-8.95 E45.88258
G1 X8.529 Y-4.496 E46.07105
G1 X8.309 Y0 E46.2595
G1 X8.529 Y4.496 E46.44795
G1 X9.19 Y8.95 E46.63642
G1 X10.284 Y13.317 E46.82488
G1 X10.574 Y14.129 E46.86096
G1 X-.885 Y14.129 E47.34065
G1 X-1.281 Y14.464 F7200
G1 F2400
G1 X-1.281 Y-14.464 E48.55161
G1 X11.048 Y-14.456 E49.06769
G1 X10.605 Y-13.22 E49.12268
G1 X9.52 Y-8.885 E49.30975
G1 X8.864 Y-4.464 E49.49684
G1 X8.645 Y0 E49.68391
G1 X8.864 Y4.464 E49.87098
G1 X9.52 Y8.885 E50.05807
G1 X10.605 Y13.22 E50.24514
G1 X11.051 Y14.464 E50.30048
G1 X-1.221 Y14.464 E50.81418
G1 X-1.591 Y14.8 F7200
;TYPE:External perimeter
G1 F1200
G1 X-1.616 Y14.8 E50.81522
G1 X-1.616 Y-14.8 E52.05428
G1 X11.524 Y-14.792 E52.60437
G1 X10.927 Y-13.122 E52.67859
G1 X9.849 Y-8.819 E52.86429
G1 X9.198 Y-4.431 E53.05
G1 X8.981 Y0 E53.23569
G1 X9.198 Y4.431 E53.42138
G1 X9.849 Y8.819 E53.60709
G1 X10.927 Y13.122 E53.79278
G1 X11.527 Y14.8 E53.86738
G1 X-1.531 Y14.8 E54.41402
G1 X-1.605 Y14.779 F7200
G1 E48.91402 F2100
G92 E0
G1 X10.205 Y13.496 F7200
G1 E5.5 F2100
;TYPE:Solid infill
;WIDTH:0.402905
G1 F1200
G1 X9.857 Y13.843 E5.52078
G1 X9.378 Y13.843 E5.54099
G1 X9.973 Y13.249 E5.57648
G1 X9.877 Y12.866 E5.59315
G1 X8.9 Y13.843 E5.6515
G1 X8.421 Y13.843 E5.67171
G1 X9.781 Y12.483 E5.75292
G1 X9.685 Y12.101 E5.76959
G1 X7.942 Y13.843 E5.87366
G1 X7.463 Y13.843 E5.89387
G1 X9.589 Y11.718 E6.02081
G1 X9.493 Y11.335 E6.03747
G1 X6.985 Y13.843 E6.18727
G1 X6.506 Y13.843 E6.20748
G1 X9.397 Y10.952 E6.38014
G1 X9.301 Y10.569 E6.3968
G1 X6.027 Y13.843 E6.59232
G1 X5.548 Y13.843 E6.61253
G1 X9.206 Y10.186 E6.83091
G1 X9.11 Y9.803 E6.84757
G1 X5.07 Y13.843 E7.08881
G1 X4.591 Y13.843 E7.10902
G1 X9.014 Y9.421 E7.37312
G1 X8.918 Y9.038 E7.38978
G1 X4.112 Y13.843 E7.67674
G1 X3.633 Y13.843 E7.69696
G1 X8.853 Y8.624 E8.00864
G1 X8.791 Y8.207 E8.02644
G1 X3.155 Y13.843 E8.36302
G1 X2.676 Y13.843 E8.38323
G1 X8.73 Y7.79 E8.7447
G1 X8.668 Y7.373 E8.7625
G1 X2.197 Y13.843 E9.14887
G1 X1.718 Y13.843 E9.16908
G1 X8.606 Y6.956 E9.58034
G1 X8.544 Y6.539 E9.59814
G1 X1.24 Y13.843 E10.03429
G1 X.761 Y13.844 E10.05451
G1 X8.482 Y6.122 E10.51556
G1 X8.42 Y5.705 E10.53335
G1 X.282 Y13.843 E11.0193
G1 X-.197 Y13.843 E11.03951
G1 X8.359 Y5.288 E11.55035
G1 X8.297 Y4.872 E11.56815
G1 X-.66 Y13.828 E12.10296
G1 X-.66 Y13.349 E12.12318
G1 X8.241 Y4.448 E12.6547
G1 X8.219 Y3.992 E12.67399
G1 X-.66 Y12.871 E13.20417
G1 X-.66 Y12.392 E13.22439
G1 X8.197 Y3.535 E13.75324
G1 X8.174 Y3.079 E13.77253
G1 X-.66 Y11.913 E14.30005
G1 X-.66 Y11.434 E14.32026
G1 X8.152 Y2.622 E14.84644
G1 X8.13 Y2.166 E14.86573
G1 X-.66 Y10.956 E15.39058
G1 X-.66 Y10.477 E15.41079
G1 X8.107 Y1.71 E15.9343
G1 X8.085 Y1.253 E15.9536
G1 X-.66 Y9.998 E16.47578
G1 X-.66 Y9.519 E16.49599
G1 X8.063 Y.797 E17.01683
G1 X8.04 Y.34 E17.03612
G1 X-.66 Y9.041 E17.55563
G1 X-.66 Y8.562 E17.57585
G1 X8.03 Y-.128 E18.09473
G1 X8.055 Y-.631 E18.11601
G1 X-.66 Y8.083 E18.63637
G1 X-.66 Y7.604 E18.65659
G1 X8.079 Y-1.135 E19.17842
G1 X8.104 Y-1.638 E19.1997
G1 X-.66 Y7.126 E19.723
G1 X-.66 Y6.647 E19.74321
G1 X8.129 Y-2.142 E20.26799
G1 X8.153 Y-2.645 E20.28927
G1 X-.66 Y6.168 E20.81551
G1 X-.66 Y5.689 E20.83573
G1 X8.178 Y-3.148 E21.36345
G1 X8.202 Y-3.652 E21.38473
G1 X-.66 Y5.211 E21.91392
G1 X-.66 Y4.732 E21.93413
G1 X8.227 Y-4.155 E22.46479
G1 X8.267 Y-4.674 E22.48677
G1 X-.66 Y4.253 E23.01984
G1 X-.66 Y3.774 E23.04006
G1 X8.351 Y-5.236 E23.5781
G1 X8.434 Y-5.798 E23.6021
G1 X-.66 Y3.296 E24.14512
G1 X-.66 Y2.817 E24.16534
G1 X8.518 Y-6.36 E24.71334
G1 X8.601 Y-6.923 E24.73733
G1 X-.66 Y2.338 E25.29031
G1 X-.66 Y1.86 E25.31053
G1 X8.684 Y-7.485 E25.86849
G1 X8.768 Y-8.047 E25.89248
G1 X-.66 Y1.381 E26.45542
G1 X-.66 Y.902 E26.47563
G1 X8.851 Y-8.609 E27.04355
G1 X8.91 Y-9.006 E27.06049
G1 X8.957 Y-9.194 E27.06866
G1 X-.66 Y.423 E27.6429
G1 X-.66 Y-.055 E27.66312
G1 X9.117 Y-9.832 E28.24691
G1 X9.277 Y-10.471 E28.27471
G1 X-.66 Y-.534 E28.86806
G1 X-.66 Y-1.013 E28.88827
G1 X9.437 Y-11.11 E29.49117
G1 X9.597 Y-11.748 E29.51897
G1 X-.66 Y-1.492 E30.13142
G1 X-.66 Y-1.97 E30.15163
G1 X9.757 Y-12.387 E30.77364
G1 X9.917 Y-13.026 E30.80144
G1 X-.66 Y-2.449 E31.43299
G1 X-.66 Y-2.928 E31.45321
G1 X10.121 Y-13.709 E32.09696
G1 X10.167 Y-13.836 E32.10266
G1 X9.77 Y-13.836 E32.11941
G1 X-.66 Y-3.407 E32.74218
G1 X-.66 Y-3.885 E32.7624
G1 X9.291 Y-13.837 E33.3566
G1 X8.813 Y-13.837 E33.3768
G1 X-.66 Y-4.364 E33.94243
G1 X-.66 Y-4.843 E33.96264
G1 X8.334 Y-13.837 E34.49971
G1 X7.856 Y-13.837 E34.51991
G1 X-.66 Y-5.322 E35.0284
G1 X-.66 Y-5.8 E35.04861
G1 X7.377 Y-13.838 E35.52854
G1 X6.899 Y-13.838 E35.54874
G1 X-.66 Y-6.279 E36.0001
G1 X-.66 Y-6.758 E36.02031
G1 X6.421 Y-13.838 E36.4431
G1 X5.942 Y-13.839 E36.4633
G1 X-.66 Y-7.237 E36.85751
G1 X-.66 Y-7.715 E36.87773
G1 X5.464 Y-13.839 E37.24338
G1 X4.985 Y-13.839 E37.26358
G1 X-.66 Y-8.194 E37.60066
G1 X-.66 Y-8.673 E37.62087
G1 X4.507 Y-13.84 E37.92938
G1 X4.028 Y-13.84 E37.94958
G1 X-.66 Y-9.152 E38.22953
G1 X-.66 Y-9.63 E38.24974
G1 X3.55 Y-13.84 E38.50111
G1 X3.071 Y-13.84 E38.52131
G1 X-.66 Y-10.109 E38.74412
G1 X-.66 Y-10.588 E38.76433
G1 X2.593 Y-13.841 E38.95857
G1 X2.115 Y-13.841 E38.97877
G1 X-.66 Y-11.067 E39.14444
G1 X-.66 Y-11.545 E39.16465
G1 X1.636 Y-13.841 E39.30175
G1 X1.158 Y-13.842 E39.32195
G1 X-.66 Y-12.024 E39.43048
G1 X-.66 Y-12.503 E39.45069
G1 X.679 Y-13.842 E39.53065
G1 X.201 Y-13.842 E39.55085
G1 X-.66 Y-12.982 E39.60224
G1 X-.66 Y-13.46 E39.62246
G1 X-.127 Y-13.993 E39.65429
;LAYER_CHANGE
;Z:0.95
;HEIGHT:0.3
G1 Z.95 F7200
G1 E34.15429 F2100
G92 E0
G1 X-.945 Y14.129 F7200
G1 E5.5 F2100
;TYPE:Perimeter
;WIDTH:0.4
G1 F2400
G1 X-.945 Y-14.129 E6.68287
G1 X10.574 Y-14.129 E7.16508
G1 X10.284 Y-13.317 E7.20116
G1 X9.19 Y-8.95 E7.38961
G1 X8.529 Y-4.496 E7.57809
G1 X8.309 Y0 E7.76653
G1 X8.529 Y4.496 E7.95498
G1 X9.19 Y8.95 E8.14345
G1 X10.284 Y13.317 E8.33191
G1 X10.574 Y14.129 E8.36799
G1 X-.885 Y14.129 E8.84769
G1 X-1.281 Y14.464 F7200
G1 F2400
G1 X-1.281 Y-14.464 E10.05865
G1 X11.051 Y-14.464 E10.57486
G1 X10.605 Y-13.22 E10.6302
G1 X9.52 Y-8.885 E10.81727
G1 X8.864 Y-4.464 E11.00437
G1 X8.645 Y0 E11.19143
G1 X8.864 Y4.464 E11.3785
G1 X9.52 Y8.885 E11.56559
G1 X10.605 Y13.22 E11.75267
G1 X11.051 Y14.464 E11.80801
G1 X-1.221 Y14.464 E12.3217
G1 X-1.591 Y14.8 F7200
;TYPE:External perimeter
G1 F1200
G1 X-1.616 Y14.8 E12.32275
G1 X-1.616 Y-14.8 E13.56181
G1 X11.527 Y-14.8 E14.11202
G1 X10.927 Y-13.122 E14.18662
G1 X9.849 Y-8.819 E14.37231
G1 X9.198 Y-4.431 E14.55802
G1 X8.981 Y0 E14.74371
G1 X9.198 Y4.431 E14.9294
G1 X9.849 Y8.819 E15.11511
G1 X10.927 Y13.122 E15.3008
G1 X11.527 Y14.8 E15.3754
G1 X-1.531 Y14.8 E15.92205
G1 X-1.605 Y14.779 F7200
G1 E10.42205 F2100
G92 E0
G1 X10.205 Y-13.496 F7200
G1 E5.5 F2100
;TYPE:Solid infill
;WIDTH:0.402911
G1 F1200
G1 X9.857 Y-13.843 E5.52078
G1 X9.378 Y-13.843 E5.54099
G1 X9.973 Y-13.249 E5.57649
G1 X9.877 Y-12.866 E5.59315
G1 X8.9 Y-13.843 E5.6515
G1 X8.421 Y-13.843 E5.67172
G1 X9.781 Y-12.483 E5.75293
G1 X9.685 Y-12.101 E5.7696
G1 X7.942 Y-13.843 E5.87367
G1 X7.463 Y-13.843 E5.89389
G1 X9.589 Y-11.718 E6.02083
G1 X9.493 Y-11.335 E6.03749
G1 X6.985 Y-13.843 E6.18729
G1 X6.506 Y-13.843 E6.20751
G1 X9.397 Y-10.952 E6.38017
G1 X9.301 Y-10.569 E6.39683
G1 X6.027 Y-13.843 E6.59236
G1 X5.548 Y-13.843 E6.61257
G1 X9.206 Y-10.186 E6.83096
G1 X9.11 Y-9.803 E6.84762
G1 X5.07 Y-13.843 E7.08887
G1 X4.591 Y-13.843 E7.10908
G1 X9.014 Y-9.421 E7.37319
G1 X8.918 Y-9.038 E7.38986
G1 X4.112 Y-13.843 E7.67682
G1 X3.633 Y-13.843 E7.69704
G1 X8.853 Y-8.624 E8.00874
G1 X8.791 Y-8.207 E8.02653
G1 X3.155 Y-13.843 E8.36312
G1 X2.676 Y-13.843 E8.38334
G1 X8.73 Y-7.79 E8.74482
G1 X8.668 Y-7.373 E8.76262
G1 X2.197 Y-13.843 E9.149
G1 X1.718 Y-13.843 E9.16922
G1 X8.606 Y-6.956 E9.58049
G1 X8.544 Y-6.539 E9.59829
G1 X1.24 Y-13.843 E10.03446
G1 X.761 Y-13.843 E10.05468
G1 X8.482 Y-6.122 E10.51574
G1 X8.42 Y-5.705 E10.53354
G1 X.282 Y-13.843 E11.0195
G1 X-.197 Y-13.843 E11.03972
G1 X8.359 Y-5.288 E11.55058
G1 X8.297 Y-4.871 E11.56837
G1 X-.66 Y-13.828 E12.1032
G1 X-.66 Y-13.349 E12.12341
G1 X8.241 Y-4.448 E12.65494
G1 X8.219 Y-3.991 E12.67423
G1 X-.66 Y-12.87 E13.20443
G1 X-.66 Y-12.392 E13.22464
G1 X8.197 Y-3.535 E13.7535
G1 X8.174 Y-3.079 E13.77279
G1 X-.66 Y-11.913 E14.30032
G1 X-.66 Y-11.434 E14.32053
G1 X8.152 Y-2.622 E14.84672
G1 X8.13 Y-2.166 E14.86601
G1 X-.66 Y-10.955 E15.39087
G1 X-.66 Y-10.477 E15.41108
G1 X8.107 Y-1.709 E15.9346
G1 X8.085 Y-1.253 E15.9539
G1 X-.66 Y-9.998 E16.47608
G1 X-.66 Y-9.519 E16.4963
G1 X8.063 Y-.797 E17.01715
G1 X8.04 Y-.34 E17.03644
G1 X-.66 Y-9.04 E17.55596
G1 X-.66 Y-8.562 E17.57617
G1 X8.03 Y.128 E18.09507
G1 X8.055 Y.632 E18.11635
G1 X-.66 Y-8.083 E18.63672
G1 X-.66 Y-7.604 E18.65694
