;generated by ffslicer 2.2.2 04/19/23 08:41:25
;machine_type: Adventurer 3 Series
;right_extruder_material: Flashforge-PETG-1
;right_extruder_material_density: 1.27
;filament_diameter0: 1.75
;right_extruder_temperature: 240
;layer_height: 0.18
;perimeter_shells: 3
;top_solid_layers: 4
;bottom_solid_layers: 3
;fill_density: 15%
;fill_pattern: hexagon
;base_print_speed: 50
;travel_speed: 80
;platform_temperature: 80
;right_extruder_temperature_raft0: 0
;right_extruder_temperature_reset: 
;left_extruder_temperature_reset: 
;start gcode
M118 X56.19 Y45.00 Z16.51 T0
M140 S80 T0
M104 S240 T0
M104 S0 T1
M107
G90
G28
M132 X Y Z A B
G1 Z50.000 F420
G161 X Y F3300
M7 T0
M6 T0
M652
;layer_count: 91
M108 T0
G1 X43.23 Y-.82 F4800
;raft
;layer:0.27
G1 Z.270 F420
;structure:shell-inner
;extrude_ratio:1.09
G1 X43.23 Y-.82 F4200
G1 X43.23 Y-.50 E.0157 F600
G1 X43.21 Y1.94 E.1351
G1 X43.15 Y2.57 E.1661
G1 X42.95 Y5.01 E.2859
G1 X42.56 Y7.71 E.4194
G1 X41.70 Y11.46 E.6077
G1 X40.76 Y14.44 E.7606
G1 X39.78 Y16.98 E.8939
G1 X38.10 Y20.48 E1.0839
G1 X37.79 Y21.00 E1.1135
G1 X35.65 Y24.48 E1.3135
G1 X35.28 Y24.98 E1.3439
G1 X33.83 Y26.95 E1.4636
G1 X33.29 Y27.56 E1.5035
G1 X30.69 Y30.46 E1.6941
G1 X30.26 Y30.87 E1.7232
G1 X28.48 Y32.55 E1.8430
G1 X26.26 Y34.35 E1.9829
G1 X23.85 Y36.08 E2.1281
G1 X23.34 Y36.39 E2.1573
G1 X19.83 Y38.43 E2.3560
G1 X16.89 Y39.81 E2.5149
G1 X14.20 Y40.84 E2.6559
G1 X11.56 Y41.68 E2.7915
G1 X7.64 Y42.57 E2.9882
G1 X1.97 Y43.14 E3.2671
G1 X1.48 Y43.20 E3.2913
G1 X.88 Y43.24 E3.3207
G1 X-1.83 Y43.21 E3.4533
G1 X-6.71 Y42.67 E3.6936
G1 X-7.36 Y42.62 E3.7256
G1 X-7.96 Y42.51 E3.7554
G1 X-10.32 Y41.99 E3.8737
G1 X-10.96 Y41.83 E3.9060
G1 X-13.29 Y41.17 E4.0245
G1 X-13.64 Y41.04 E4.0428
G1 X-16.25 Y40.06 E4.1792
G1 X-17.19 Y39.69 E4.2287
G1 X-21.55 Y37.47 E4.4681
G1 X-22.10 Y37.19 E4.4983
G1 X-24.02 Y35.97 E4.6096
G1 X-25.97 Y34.57 E4.7271
G1 X-26.48 Y34.18 E4.7586
G1 X-28.99 Y32.09 E4.9184
G1 X-29.45 Y31.67 E4.9489
G1 X-31.20 Y29.96 E5.0687
G1 X-31.59 Y29.54 E5.0967
G1 X-31.79 Y29.28 E5.1128
G1 X-34.94 Y25.51 E5.3532
G1 X-36.21 Y23.66 E5.4630
G1 X-37.47 Y21.59 E5.5816
G1 X-37.78 Y21.03 E5.6130
G1 X-38.93 Y18.86 E5.7332
G1 X-39.72 Y17.14 E5.8258
G1 X-39.96 Y16.54 E5.8574
G1 X-40.05 Y16.26 E5.8718
G1 X-41.67 Y11.62 E6.1123
G1 X-42.14 Y9.77 E6.2058
G1 X-42.21 Y9.45 E6.2218
G1 X-42.67 Y7.06 E6.3409
G1 X-42.76 Y6.45 E6.3711
G1 X-43.07 Y4.04 E6.4900
G1 X-43.22 Y1.78 E6.6009
G1 X-43.10 Y-3.74 E6.8711
G1 X-42.89 Y-5.65 E6.9651
G1 X-42.80 Y-6.24 E6.9943
G1 X-42.72 Y-6.56 E7.0105
G1 X-41.74 Y-11.36 E7.2503
G1 X-41.66 Y-11.64 E7.2645
G1 X-41.17 Y-13.29 E7.3488
G1 X-41.10 Y-13.51 E7.3601
G1 X-40.26 Y-15.78 E7.4785
G1 X-40.02 Y-16.38 E7.5101
G1 X-39.05 Y-18.60 E7.6287
G1 X-38.03 Y-20.61 E7.7390
G1 X-35.11 Y-25.27 E8.0082
G1 X-33.76 Y-27.05 E8.1175
G1 X-30.45 Y-30.66 E8.3572
G1 X-30.03 Y-31.13 E8.3881
G1 X-29.59 Y-31.54 E8.4175
G1 X-27.13 Y-33.69 E8.5774
G1 X-26.64 Y-34.07 E8.6078
G1 X-26.39 Y-34.24 E8.6226
G1 X-22.37 Y-37.02 E8.8618
G1 X-20.42 Y-38.13 E8.9716
G1 X-17.94 Y-39.35 E9.1068
G1 X-17.65 Y-39.47 E9.1222
G1 X-14.64 Y-40.68 E9.2810
G1 X-14.08 Y-40.88 E9.3101
G1 X-10.14 Y-42.03 E9.5110
G1 X-9.54 Y-42.19 E9.5414
G1 X-9.04 Y-42.27 E9.5661
G1 X-4.09 Y-43.06 E9.8115
G1 X-3.80 Y-43.09 E9.8257
G1 X-.27 Y-43.24 E9.9987
G1 X.08 Y-43.25 E10.0158
G1 X2.36 Y-43.17 E10.1275
G1 X3.13 Y-43.13 E10.1652
G1 X7.50 Y-42.60 E10.3806
G1 X7.79 Y-42.54 E10.3951
G1 X10.46 Y-41.96 E10.5288
G1 X10.77 Y-41.88 E10.5445
G1 X14.20 Y-40.84 E10.7199
G1 X16.89 Y-39.81 E10.8609
G1 X19.11 Y-38.77 E10.9809
G1 X19.54 Y-38.57 E11.0041
G1 X22.23 Y-37.10 E11.1541
G1 X24.52 Y-35.61 E11.2879
G1 X24.74 Y-35.47 E11.3006
G1 X27.61 Y-33.28 E11.4773
G1 X29.92 Y-31.23 E11.6285
G1 X31.70 Y-29.40 E11.7534
G1 X32.06 Y-29.01 E11.7794
G1 X33.62 Y-27.21 E11.8960
G1 X34.61 Y-25.90 E11.9763
G1 X35.03 Y-25.37 E12.0094
G1 X36.09 Y-23.83 E12.1009
G1 X38.10 Y-20.47 E12.2925
G1 X39.16 Y-18.30 E12.4107
G1 X39.44 Y-17.73 E12.4418
G1 X41.04 Y-13.63 E12.6572
G1 X41.14 Y-13.34 E12.6722
G1 X41.85 Y-10.84 E12.7994
G1 X41.97 Y-10.40 E12.8218
G1 X42.93 Y-4.78 E13.1008
G1 X43.00 Y-4.47 E13.1163
G1 X43.08 Y-3.87 E13.1460
G1 X43.21 Y-1.45 E13.2646
G1 X43.23 Y-.82 E13.2954
;extrude_ratio:1
G1 X43.63 Y-.82 F4200
;extrude_ratio:1.09
G1 X43.63 Y-.82
G1 X43.63 Y-.49 E13.3116 F600
G1 X43.61 Y1.96 E13.4315
G1 X43.55 Y2.61 E13.4634
G1 X43.35 Y5.05 E13.5833
G1 X42.95 Y7.78 E13.7183
G1 X42.09 Y11.58 E13.9090
G1 X41.14 Y14.56 E14.0621
G1 X40.15 Y17.14 E14.1973
G1 X38.45 Y20.66 E14.3886
G1 X38.13 Y21.21 E14.4198
G1 X35.98 Y24.70 E14.6204
G1 X35.60 Y25.22 E14.6519
G1 X34.14 Y27.20 E14.7723
G1 X33.69 Y27.72 E14.8060
G1 X30.99 Y30.73 E15.0039
G1 X30.53 Y31.17 E15.0350
G1 X28.75 Y32.85 E15.1548
G1 X26.49 Y34.68 E15.2971
G1 X24.08 Y36.41 E15.4423
G1 X23.54 Y36.74 E15.4733
G1 X20.01 Y38.78 E15.6729
G1 X19.27 Y39.13 E15.7129
G1 X17.05 Y40.18 E15.8331
G1 X14.33 Y41.22 E15.9756
G1 X11.67 Y42.06 E16.1122
G1 X10.88 Y42.24 E16.1518
G1 X7.71 Y42.96 E16.3109
G1 X2.01 Y43.53 E16.5913
G1 X1.52 Y43.60 E16.6155
G1 X.89 Y43.64 E16.6464
G1 X-1.86 Y43.61 E16.7810
G1 X-6.75 Y43.06 E17.0218
G1 X-7.41 Y43.01 E17.0542
G1 X-8.03 Y42.91 E17.0850
G1 X-10.42 Y42.38 E17.2048
G1 X-11.06 Y42.21 E17.2372
G1 X-13.41 Y41.54 E17.3568
G1 X-13.78 Y41.42 E17.3758
G1 X-16.58 Y40.37 E17.5222
G1 X-17.36 Y40.06 E17.5633
G1 X-21.73 Y37.83 E17.8034
G1 X-22.30 Y37.53 E17.8349
G1 X-24.24 Y36.31 E17.9471
G1 X-26.21 Y34.89 E18.0659
G1 X-26.74 Y34.49 E18.0984
G1 X-29.25 Y32.39 E18.2586
G1 X-29.73 Y31.95 E18.2904
G1 X-31.48 Y30.25 E18.4099
G1 X-31.89 Y29.80 E18.4397
G1 X-32.10 Y29.53 E18.4564
G1 X-35.25 Y25.76 E18.6968
G1 X-36.55 Y23.88 E18.8087
G1 X-37.81 Y21.80 E18.9277
G1 X-38.14 Y21.22 E18.9604
G1 X-39.28 Y19.05 E19.0804
G1 X-39.42 Y18.77 E19.0957
G1 X-40.09 Y17.29 E19.1752
G1 X-40.33 Y16.68 E19.2073
G1 X-40.43 Y16.39 E19.2223
G1 X-42.05 Y11.74 E19.4633
G1 X-42.53 Y9.85 E19.5587
G1 X-42.60 Y9.54 E19.5743
G1 X-43.06 Y7.13 E19.6944
G1 X-43.16 Y6.50 E19.7256
G1 X-43.47 Y4.08 E19.8450
G1 X-43.62 Y1.79 E19.9573
G1 X-43.50 Y-3.77 E20.2295
G1 X-43.47 Y-4.06 E20.2437
G1 X-43.29 Y-5.69 E20.3240
G1 X-43.19 Y-6.32 E20.3552
G1 X-43.12 Y-6.64 E20.3713
G1 X-42.13 Y-11.45 E20.6116
G1 X-42.05 Y-11.75 E20.6268
G1 X-41.58 Y-13.32 E20.7070
G1 X-41.48 Y-13.63 E20.7230
G1 X-40.64 Y-15.91 E20.8419
G1 X-40.39 Y-16.54 E20.8750
G1 X-39.42 Y-18.77 E20.9941
G1 X-38.38 Y-20.81 E21.1061
G1 X-35.44 Y-25.50 E21.3770
G1 X-34.07 Y-27.30 E21.4878
G1 X-30.75 Y-30.93 E21.7285
G1 X-30.32 Y-31.41 E21.7601
G1 X-29.85 Y-31.84 E21.7912
G1 X-27.38 Y-34.00 E21.9518
G1 X-26.88 Y-34.39 E21.9829
G1 X-26.61 Y-34.57 E21.9987
G1 X-22.58 Y-37.36 E22.2386
G1 X-20.61 Y-38.49 E22.3498
G1 X-18.10 Y-39.72 E22.4866
G1 X-17.81 Y-39.84 E22.5020
G1 X-14.79 Y-41.06 E22.6614
G1 X-14.19 Y-41.27 E22.6925
G1 X-10.25 Y-42.42 E22.8934
G1 X-9.63 Y-42.58 E22.9247
G1 X-9.11 Y-42.67 E22.9505
G1 X-4.14 Y-43.45 E23.1967
G1 X-3.84 Y-43.48 E23.2115
G1 X-.43 Y-43.64 E23.3786
G1 X.08 Y-43.65 E23.4035
G1 X2.52 Y-43.56 E23.5230
G1 X3.16 Y-43.53 E23.5544
G1 X7.56 Y-42.99 E23.7714
G1 X7.86 Y-42.94 E23.7862
G1 X10.56 Y-42.35 E23.9215
G1 X10.88 Y-42.26 E23.9378
G1 X14.33 Y-41.22 E24.1141
G1 X17.05 Y-40.18 E24.2566
G1 X19.27 Y-39.13 E24.3768
G1 X19.73 Y-38.93 E24.4014
G1 X22.42 Y-37.45 E24.5517
G1 X24.75 Y-35.94 E24.6875
G1 X24.96 Y-35.80 E24.6999
G1 X27.87 Y-33.59 E24.8787
G1 X30.20 Y-31.51 E25.0316
G1 X31.99 Y-29.68 E25.1569
G1 X32.35 Y-29.29 E25.1829
G1 X33.93 Y-27.45 E25.3016
G1 X34.93 Y-26.15 E25.3818
G1 X35.35 Y-25.61 E25.4153
G1 X36.43 Y-24.04 E25.5086
G1 X38.45 Y-20.67 E25.7009
G1 X39.53 Y-18.47 E25.8208
G1 X39.81 Y-17.88 E25.8528
G1 X41.42 Y-13.76 E26.0693
G1 X41.53 Y-13.46 E26.0849
G1 X42.23 Y-10.95 E26.2124
G1 X42.36 Y-10.49 E26.2358
G1 X43.33 Y-4.86 E26.5154
G1 X43.39 Y-4.54 E26.5314
G1 X43.48 Y-3.91 E26.5625
G1 X43.60 Y-1.47 E26.6821
G1 X43.63 Y-.82 E26.7139
;extrude_ratio:1
G1 X44.03 Y-.81 F4200
;structure:shell-outer
;extrude_ratio:1.09
G1 X44.03 Y-.81
G1 X44.03 Y-.49 E26.7296 F600
G1 X44.01 Y1.98 E26.8505
G1 X43.95 Y2.64 E26.8829
G1 X43.75 Y5.09 E27.0032
G1 X43.35 Y7.86 E27.1402
G1 X42.47 Y11.70 E27.3330
G1 X41.52 Y14.69 E27.4866
G1 X40.51 Y17.30 E27.6235
G1 X38.80 Y20.85 E27.8164
G1 X38.47 Y21.42 E27.8486
G1 X36.31 Y24.92 E28.0499
G1 X35.92 Y25.46 E28.0825
G1 X34.46 Y27.44 E28.2029
G1 X34.03 Y27.94 E28.2352
G1 X31.28 Y31.00 E28.4365
G1 X30.81 Y31.46 E28.4687
G1 X29.01 Y33.15 E28.5896
G1 X26.72 Y35.01 E28.7340
G1 X24.30 Y36.74 E28.8796
G1 X23.74 Y37.08 E28.9116
G1 X20.19 Y39.14 E29.1125
G1 X19.90 Y39.29 E29.1285
G1 X19.44 Y39.50 E29.1532
G1 X17.21 Y40.55 E29.2739
G1 X14.45 Y41.61 E29.4186
G1 X11.78 Y42.45 E29.5556
G1 X10.97 Y42.63 E29.5962
G1 X7.77 Y43.36 E29.7568
G1 X2.06 Y43.93 E30.0377
G1 X1.56 Y44.00 E30.0624
G1 X.89 Y44.04 E30.0952
G1 X-1.89 Y44.01 E30.2313
G1 X-6.79 Y43.46 E30.4726
G1 X-7.45 Y43.41 E30.5050
G1 X-8.11 Y43.30 E30.5377
G1 X-10.51 Y42.77 E30.6580
G1 X-11.16 Y42.60 E30.6909
G1 X-13.53 Y41.93 E30.8115
G1 X-13.83 Y41.82 E30.8271
G1 X-16.91 Y40.67 E30.9880
G1 X-17.53 Y40.42 E31.0207
G1 X-21.92 Y38.18 E31.2619
G1 X-22.50 Y37.88 E31.2939
G1 X-24.46 Y36.64 E31.4074
G1 X-26.46 Y35.21 E31.5277
G1 X-26.98 Y34.81 E31.5598
G1 X-29.51 Y32.70 E31.7211
G1 X-30.00 Y32.25 E31.7536
G1 X-31.77 Y30.53 E31.8744
G1 X-32.20 Y30.05 E31.9060
G1 X-32.41 Y29.78 E31.9227
G1 X-35.57 Y26.00 E32.1638
G1 X-36.88 Y24.10 E32.2768
G1 X-38.16 Y22.00 E32.3972
G1 X-38.49 Y21.42 E32.4298
G1 X-39.64 Y19.24 E32.5505
G1 X-39.78 Y18.94 E32.5667
G1 X-40.46 Y17.44 E32.6473
G1 X-40.71 Y16.83 E32.6795
G1 X-40.81 Y16.51 E32.6959
G1 X-42.44 Y11.86 E32.9371
G1 X-42.52 Y11.54 E32.9532
G1 X-42.92 Y9.95 E33.0335
G1 X-42.99 Y9.63 E33.0495
G1 X-43.45 Y7.21 E33.1701
G1 X-43.56 Y6.55 E33.2028
G1 X-43.87 Y4.12 E33.3227
G1 X-44.02 Y1.80 E33.4365
G1 X-43.90 Y-3.79 E33.7101
G1 X-43.87 Y-4.11 E33.7259
G1 X-43.69 Y-5.73 E33.8057
G1 X-43.58 Y-6.40 E33.8389
G1 X-43.51 Y-6.72 E33.8549
G1 X-42.52 Y-11.54 E34.0957
G1 X-42.43 Y-11.86 E34.1120
G1 X-41.96 Y-13.44 E34.1927
G1 X-41.86 Y-13.75 E34.2086
G1 X-41.01 Y-16.06 E34.3291
G1 X-40.76 Y-16.69 E34.3623
G1 X-39.78 Y-18.93 E34.4819
G1 X-38.73 Y-21.00 E34.5955
G1 X-35.76 Y-25.73 E34.8689
G1 X-34.37 Y-27.56 E34.9814
G1 X-31.05 Y-31.20 E35.2225
G1 X-30.60 Y-31.69 E35.2550
G1 X-30.11 Y-32.15 E35.2879
G1 X-27.63 Y-34.31 E35.4489
G1 X-27.12 Y-34.71 E35.4806
G1 X-26.84 Y-34.90 E35.4972
G1 X-22.79 Y-37.70 E35.7381
G1 X-20.79 Y-38.84 E35.8508
G1 X-18.27 Y-40.08 E35.9883
G1 X-17.98 Y-40.21 E36.0038
G1 X-14.92 Y-41.43 E36.1651
G1 X-14.30 Y-41.66 E36.1974
G1 X-10.36 Y-42.80 E36.3982
G1 X-9.71 Y-42.97 E36.4310
G1 X-9.06 Y-43.08 E36.4633
G1 X-4.19 Y-43.85 E36.7046
G1 X-3.87 Y-43.88 E36.7203
G1 X-.59 Y-44.03 E36.8810
G1 X.08 Y-44.05 E36.9139
G1 X2.54 Y-43.96 E37.0343
G1 X3.20 Y-43.92 E37.0667
G1 X7.61 Y-43.39 E37.2841
G1 X7.94 Y-43.33 E37.3005
G1 X10.67 Y-42.73 E37.4373
G1 X10.98 Y-42.65 E37.4530
G1 X14.45 Y-41.60 E37.6304
G1 X17.21 Y-40.55 E37.7749
G1 X19.44 Y-39.50 E37.8956
G1 X19.90 Y-39.29 E37.9203
G1 X22.63 Y-37.79 E38.0728
G1 X24.98 Y-36.27 E38.2097
G1 X25.26 Y-36.08 E38.2263
G1 X28.12 Y-33.89 E38.4026
G1 X30.48 Y-31.81 E38.5566
G1 X32.18 Y-30.05 E38.6763
G1 X32.64 Y-29.56 E38.7092
G1 X34.25 Y-27.69 E38.8300
G1 X35.24 Y-26.39 E38.9100
G1 X35.66 Y-25.86 E38.9431
G1 X36.78 Y-24.25 E39.0390
G1 X38.80 Y-20.86 E39.2322
G1 X39.89 Y-18.65 E39.3528
G1 X40.18 Y-18.04 E39.3858
G1 X41.79 Y-13.91 E39.6028
G1 X41.90 Y-13.59 E39.6193
G1 X42.57 Y-11.23 E39.7394
G1 X42.75 Y-10.59 E39.7720
G1 X43.72 Y-4.93 E40.0530
G1 X43.79 Y-4.60 E40.0695
G1 X43.87 Y-3.95 E40.1016
G1 X44.00 Y-1.49 E40.2221
G1 X44.03 Y-.81 E40.2554
;extrude_ratio:1
G1 X33.12 Y-27.26 F4200
;structure:infill-solid
;extrude_ratio:1.09
G1 X33.12 Y-27.26
G1 X27.28 Y-33.10 E40.6597 F600
G1 X24.90 Y-34.92 E40.8063
G1 X34.99 Y-24.82 E41.5050
G1 X35.81 Y-23.65 E41.5749
G1 X36.11 Y-23.14 E41.6039
G1 X23.15 Y-36.09 E42.5006
G1 X22.04 Y-36.81 E42.5653
G1 X21.66 Y-37.02 E42.5866
G1 X36.95 Y-21.74 E43.6445
G1 X37.78 Y-20.33 E43.7246
G1 X20.41 Y-37.71 E44.9272
G1 X19.40 Y-38.26 E44.9835
G1 X19.20 Y-38.35 E44.9942
G1 X38.33 Y-19.22 E46.3183
G1 X38.88 Y-18.11 E46.3790
G1 X18.14 Y-38.85 E47.8145
G1 X17.06 Y-39.36 E47.8729
G1 X39.31 Y-17.10 E49.4133
G1 X39.68 Y-16.17 E49.4623
G1 X16.10 Y-39.75 E51.0944
G1 X15.19 Y-40.10 E51.1421
G1 X40.04 Y-15.25 E52.8621
G1 X40.40 Y-14.32 E52.9109
G1 X14.27 Y-40.45 E54.7195
G1 X14.09 Y-40.52 E54.7289
G1 X13.44 Y-40.71 E54.7621
G1 X40.76 Y-13.40 E56.6527
G1 X41.00 Y-12.59 E56.6940
G1 X12.63 Y-40.96 E58.6576
G1 X11.82 Y-41.20 E58.6990
G1 X41.22 Y-11.81 E60.7336
G1 X41.44 Y-11.02 E60.7737
G1 X11.01 Y-41.45 E62.8799
G1 X10.67 Y-41.55 E62.8973
G1 X10.24 Y-41.66 E62.9190
G1 X41.65 Y-10.24 E65.0934
G1 X41.77 Y-9.56 E65.1272
G1 X9.51 Y-41.82 E67.3600
G1 X8.79 Y-41.98 E67.3961
G1 X41.88 Y-8.88 E69.6868
G1 X42.00 Y-8.20 E69.7206
G1 X8.06 Y-42.13 E72.0694
G1 X7.36 Y-42.27 E72.1043
G1 X42.12 Y-7.51 E74.5102
G1 X42.23 Y-6.83 E74.5440
G1 X6.72 Y-42.35 E77.0021
G1 X6.08 Y-42.42 E77.0336
G1 X42.35 Y-6.15 E79.5440
G1 X42.47 Y-5.47 E79.5778
G1 X5.43 Y-42.50 E82.1412
G1 X4.79 Y-42.58 E82.1728
G1 X42.58 Y-4.78 E84.7888
G1 X42.70 Y-4.10 E84.8226
G1 X4.14 Y-42.66 E87.4915
G1 X3.50 Y-42.74 E87.5231
G1 X42.76 Y-3.48 E90.2404
G1 X42.79 Y-2.89 E90.2693
G1 X2.87 Y-42.80 E93.0321
G1 X2.27 Y-42.83 E93.0615
G1 X42.82 Y-2.29 E95.8678
G1 X42.85 Y-1.69 E95.8972
G1 X1.69 Y-42.85 E98.7461
G1 X1.10 Y-42.87 E98.7749
G1 X42.88 Y-1.10 E101.6664
G1 X42.88 Y-.52 E101.6948
G1 X.51 Y-42.89 E104.6274
G1 X-.06 Y-42.91 E104.6553
G1 X42.88 Y.04 E107.6278
G1 X42.88 Y.60 E107.6552
G1 X-.60 Y-42.88 E110.6646
G1 X-1.15 Y-42.86 E110.6916
G1 X42.87 Y1.16 E113.7384
G1 X42.87 Y1.72 E113.7658
G1 X-1.69 Y-42.84 E116.8500
G1 X-2.23 Y-42.81 E116.8765
G1 X42.84 Y2.26 E119.9960
G1 X42.79 Y2.78 E120.0216
G1 X-2.77 Y-42.79 E123.1753
G1 X-3.31 Y-42.76 E123.2018
G1 X42.75 Y3.30 E126.3899
G1 X42.71 Y3.82 E126.4154
G1 X-3.85 Y-42.74 E129.6380
G1 X-4.35 Y-42.67 E129.6627
G1 X42.66 Y4.34 E132.9165
G1 X42.62 Y4.87 E132.9425
G1 X-4.84 Y-42.59 E136.2275
G1 X-5.33 Y-42.52 E136.2517
G1 X42.55 Y5.37 E139.5660
G1 X42.48 Y5.86 E139.5903
G1 X-5.82 Y-42.44 E142.9334
G1 X-6.31 Y-42.36 E142.9576
G1 X42.41 Y6.35 E146.3294
G1 X42.34 Y6.85 E146.3541
G1 X-6.79 Y-42.28 E149.7547
G1 X-7.28 Y-42.21 E149.7789
G1 X42.27 Y7.34 E153.2085
G1 X42.18 Y7.82 E153.2324
G1 X-7.77 Y-42.13 E156.6897
G1 X-8.26 Y-42.05 E156.7140
G1 X42.08 Y8.29 E160.1983
G1 X41.97 Y8.75 E160.2214
G1 X-8.75 Y-41.97 E163.7320
G1 X-9.23 Y-41.89 E163.7558
G1 X41.87 Y9.21 E167.2927
G1 X41.76 Y9.67 E167.3158
G1 X-9.70 Y-41.79 E170.8776
G1 X-10.14 Y-41.67 E170.8999
G1 X41.66 Y10.13 E174.4853
G1 X41.55 Y10.59 E174.5084
G1 X-10.58 Y-41.55 E178.1169
G1 X-11.02 Y-41.42 E178.1394
G1 X41.45 Y11.05 E181.7711
G1 X41.33 Y11.50 E181.7939
G1 X-11.46 Y-41.29 E185.4477
G1 X-11.90 Y-41.16 E185.4702
G1 X41.20 Y11.93 E189.1451
G1 X41.06 Y12.36 E189.1673
G1 X-12.33 Y-41.04 E192.8630
G1 X-12.77 Y-40.91 E192.8855
G1 X40.92 Y12.79 E196.6020
G1 X40.79 Y13.22 E196.6239
G1 X-13.21 Y-40.78 E200.3615
G1 X-13.65 Y-40.65 E200.3840
G1 X40.65 Y13.65 E204.1424
G1 X40.51 Y14.08 E204.1645
G1 X-14.08 Y-40.52 E207.9433
G1 X-14.50 Y-40.37 E207.9651
G1 X40.37 Y14.50 E211.7629
G1 X40.21 Y14.90 E211.7840
G1 X-14.90 Y-40.21 E215.5984
G1 X-15.31 Y-40.05 E215.6200
G1 X40.05 Y15.31 E219.4517
G1 X39.90 Y15.72 E219.4731
G1 X-15.71 Y-39.88 E223.3217
G1 X-16.11 Y-39.72 E223.3428
G1 X39.74 Y16.13 E227.2085
G1 X39.58 Y16.54 E227.2300
G1 X-16.52 Y-39.56 E231.1130
G1 X-16.92 Y-39.40 E231.1341
G1 X39.42 Y16.94 E235.0336
G1 X39.24 Y17.32 E235.0542
G1 X-17.32 Y-39.24 E238.9690
G1 X-17.72 Y-39.07 E238.9903
G1 X39.05 Y17.70 E242.9196
G1 X38.87 Y18.09 E242.9406
G1 X-18.10 Y-38.89 E246.8841
G1 X-18.48 Y-38.70 E246.9049
G1 X38.69 Y18.47 E250.8619
G1 X38.50 Y18.85 E250.8827
G1 X-18.86 Y-38.51 E254.8529
G1 X-19.24 Y-38.33 E254.8735
G1 X38.32 Y19.23 E258.8575
G1 X38.13 Y19.62 E258.8787
G1 X-19.62 Y-38.14 E262.8762
G1 X-20.00 Y-37.96 E262.8968
G1 X37.95 Y20.00 E266.9081
G1 X37.76 Y20.37 E266.9285
G1 X-20.38 Y-37.76 E270.9523
G1 X-20.74 Y-37.56 E270.9725
G1 X37.55 Y20.73 E275.0070
G1 X37.34 Y21.08 E275.0270
