; generated by PrusaSlicer 2.4.2+linux-x64-GTK3 on 2023-05-03 at 21:30:51 UTC

; 

; external perimeters extrusion width = 0.40mm
; perimeters extrusion width = 0.40mm
; infill extrusion width = 0.40mm
; solid infill extrusion width = 0.40mm
; top infill extrusion width = 0.40mm
; support material extrusion width = 0.40mm
; first layer extrusion width = 0.45mm

M107
;TYPE:Custom
xgcode 1.0
M118 X35.05 Y26.60 Z21.65 T0
M140 S80 T0
M104 S240 T0
M104 S0 T1
M107
M106 S70 ;kickstart partfan
G90 ;absolute
G28 ;autohome all
M132 X Y Z A B
G1 Z50.00 F420
G161 X Y F3300 ;home XY to max
M7 T0 ;stabilize
M6 T0 ;stabilize
M108 T0
M106 S38
;purgeline
G1 Z.20 F420
G92 E0
G1 X-39.15 Y-74.5 F7140
G1 X70 Y-74.5 E17.7325 F600
G1 X70 Y-74.5 E18.2518
G1 X70 Y-74.5 F7140
G1 X70 Y-74.5 E18.8720 F600
G1 X75 Y-74.5 E19.1576
M106 S25
G21 ; set units to millimeters
G90 ; use absolute coordinates
M82 ; use absolute distances for extrusion
G92 E0
; Filament gcode
M107
;LAYER_CHANGE
;Z:0.35
;HEIGHT:0.35
G1 Z.35 F7200
G1 E-5.5 F2100
G92 E0
G1 X17.121 Y-58.03 F7200
G1 E5.5 F2100
;TYPE:Support material
;WIDTH:0.45
G1 F900
G1 X17.121 Y-56.82 E5.56601
G1 X24.002 Y-56.82 E5.94139
G1 X25.628 Y-55.194 E6.0668
G1 X25.628 Y-53.984 E6.13281
G1 X29.673 Y-53.984 E6.35351
G1 X31.299 Y-52.358 E6.47892
G1 X31.299 Y-51.148 E6.54493
G1 X35.345 Y-51.148 E6.76562
G1 X36.97 Y-49.523 E6.89103
G1 X36.97 Y-48.313 E6.95704
G1 X38.18 Y-48.313 E7.02305
G1 X39.806 Y-46.687 E7.14846
G1 X39.806 Y-45.477 E7.21447
G1 X41.016 Y-45.477 E7.28048
G1 X42.641 Y-43.852 E7.40589
G1 X42.641 Y-42.642 E7.4719
G1 X43.852 Y-42.642 E7.53791
G1 X45.477 Y-41.016 E7.66332
G1 X45.477 Y-39.806 E7.72933
G1 X46.687 Y-39.806 E7.79534
G1 X48.313 Y-38.18 E7.92074
G1 X48.313 Y-36.97 E7.98675
G1 X49.523 Y-36.97 E8.05276
G1 X51.148 Y-35.345 E8.17817
G1 X51.148 Y-31.299 E8.39887
G1 X52.358 Y-31.299 E8.46488
G1 X53.984 Y-29.673 E8.59029
G1 X53.984 Y-25.628 E8.81098
G1 X55.194 Y-25.628 E8.87699
G1 X56.82 Y-24.002 E9.0024
G1 X56.82 Y-17.121 E9.37779
G1 X58.03 Y-17.121 E9.4438
G1 X59.655 Y-15.495 E9.5692
G1 X59.655 Y15.495 E11.25979
G1 X58.03 Y17.121 E11.38519
G1 X56.82 Y17.121 E11.4512
G1 X56.82 Y24.002 E11.82659
G1 X55.194 Y25.628 E11.952
G1 X53.984 Y25.628 E12.01801
G1 X53.984 Y29.673 E12.2387
G1 X52.358 Y31.299 E12.36411
G1 X51.148 Y31.299 E12.43012
G1 X51.148 Y35.345 E12.65082
G1 X49.523 Y36.97 E12.77623
G1 X48.313 Y36.97 E12.84224
G1 X48.313 Y38.18 E12.90825
G1 X46.687 Y39.806 E13.03365
G1 X45.477 Y39.806 E13.09966
G1 X45.477 Y41.016 E13.16567
G1 X43.852 Y42.641 E13.29108
G1 X42.641 Y42.641 E13.35709
G1 X42.641 Y43.852 E13.4231
G1 X41.016 Y45.477 E13.54851
G1 X39.806 Y45.477 E13.61452
G1 X39.806 Y46.687 E13.68053
G1 X38.18 Y48.313 E13.80594
G1 X36.97 Y48.313 E13.87195
G1 X36.97 Y49.523 E13.93796
G1 X35.345 Y51.148 E14.06337
G1 X31.299 Y51.148 E14.28406
G1 X31.299 Y52.358 E14.35007
G1 X29.673 Y53.984 E14.47548
G1 X25.628 Y53.984 E14.69618
G1 X25.628 Y55.194 E14.76219
G1 X24.002 Y56.82 E14.8876
G1 X17.121 Y56.82 E15.26298
G1 X17.121 Y58.03 E15.32899
G1 X15.495 Y59.655 E15.4544
G1 X-15.495 Y59.655 E17.14498
G1 X-17.121 Y58.03 E17.27039
G1 X-17.121 Y56.82 E17.3364
G1 X-24.002 Y56.82 E17.71178
G1 X-25.628 Y55.194 E17.83719
G1 X-25.628 Y53.984 E17.9032
G1 X-29.673 Y53.984 E18.1239
G1 X-31.299 Y52.358 E18.2493
G1 X-31.299 Y51.148 E18.31531
G1 X-35.345 Y51.148 E18.53601
G1 X-36.97 Y49.523 E18.66142
G1 X-36.97 Y48.313 E18.72743
G1 X-38.18 Y48.313 E18.79344
G1 X-39.806 Y46.687 E18.91885
G1 X-39.806 Y45.477 E18.98486
G1 X-41.016 Y45.477 E19.05087
G1 X-42.641 Y43.852 E19.17628
G1 X-42.641 Y42.641 E19.24229
G1 X-43.852 Y42.641 E19.3083
G1 X-45.477 Y41.016 E19.4337
G1 X-45.477 Y39.806 E19.49971
G1 X-46.687 Y39.806 E19.56572
G1 X-48.313 Y38.18 E19.69113
G1 X-48.313 Y36.97 E19.75714
G1 X-49.523 Y36.97 E19.82315
G1 X-51.148 Y35.345 E19.94856
G1 X-51.148 Y31.299 E20.16926
G1 X-52.358 Y31.299 E20.23527
G1 X-53.984 Y29.673 E20.36067
G1 X-53.984 Y25.628 E20.58137
G1 X-55.194 Y25.628 E20.64738
G1 X-56.82 Y24.002 E20.77279
G1 X-56.82 Y17.121 E21.14817
G1 X-58.03 Y17.121 E21.21418
G1 X-59.655 Y15.495 E21.33959
G1 X-59.655 Y-15.495 E23.03017
G1 X-58.03 Y-17.121 E23.15558
G1 X-56.82 Y-17.121 E23.22159
G1 X-56.82 Y-24.002 E23.59698
G1 X-55.194 Y-25.628 E23.72238
G1 X-53.984 Y-25.628 E23.78839
G1 X-53.984 Y-29.673 E24.00909
G1 X-52.358 Y-31.299 E24.1345
G1 X-51.148 Y-31.299 E24.20051
G1 X-51.148 Y-35.345 E24.42121
G1 X-49.523 Y-36.97 E24.54661
G1 X-48.313 Y-36.97 E24.61262
G1 X-48.313 Y-38.18 E24.67863
G1 X-46.687 Y-39.806 E24.80404
G1 X-45.477 Y-39.806 E24.87005
G1 X-45.477 Y-41.016 E24.93606
G1 X-43.852 Y-42.642 E25.06147
G1 X-42.641 Y-42.642 E25.12748
G1 X-42.641 Y-43.852 E25.19349
G1 X-41.016 Y-45.477 E25.3189
G1 X-39.806 Y-45.477 E25.38491
G1 X-39.806 Y-46.687 E25.45092
G1 X-38.18 Y-48.313 E25.57633
G1 X-36.97 Y-48.313 E25.64234
G1 X-36.97 Y-49.523 E25.70835
G1 X-35.345 Y-51.148 E25.83375
G1 X-31.299 Y-51.148 E26.05445
G1 X-31.299 Y-52.358 E26.12046
G1 X-29.673 Y-53.984 E26.24587
G1 X-25.628 Y-53.984 E26.46657
G1 X-25.628 Y-55.194 E26.53258
G1 X-24.002 Y-56.82 E26.65798
G1 X-17.121 Y-56.82 E27.03337
G1 X-17.121 Y-58.03 E27.09938
G1 X-15.495 Y-59.655 E27.22478
G1 X15.495 Y-59.655 E28.91537
G1 X17.081 Y-58.069 E29.03771
G1 X16.179 Y-58.733 F7200
G1 F900
G1 X-15.941 Y-58.733 E30.7899
G1 X-16.566 Y-58.108 E30.83811
G1 X16.566 Y-58.108 E32.64546
G1 X16.784 Y-57.89 E32.66227
G1 X16.784 Y-57.483 E32.68447
G1 X-16.784 Y-57.483 E34.51559
G1 X-16.784 Y-56.858 E34.54967
G1 X16.784 Y-56.858 E36.3808
G1 X16.784 Y-56.482 E36.40131
G1 X23.862 Y-56.482 E36.78748
G1 X24.111 Y-56.233 E36.80667
G1 X-24.111 Y-56.233 E39.43728
G1 X-24.736 Y-55.609 E39.48548
G1 X24.736 Y-55.609 E42.18425
G1 X25.29 Y-55.054 E42.22701
G1 X25.29 Y-54.984 E42.23086
G1 X-25.29 Y-54.984 E44.99011
G1 X-25.29 Y-54.359 E45.02419
G1 X25.29 Y-54.359 E47.78344
G1 X25.29 Y-53.734 E47.81752
G1 X-25.29 Y-53.734 E50.57677
G1 X-25.29 Y-53.647 E50.58154
G1 X-29.534 Y-53.647 E50.81302
G1 X-30.071 Y-53.109 E50.85447
G1 X30.071 Y-53.109 E54.13529
G1 X30.696 Y-52.484 E54.18349
G1 X-30.696 Y-52.484 E57.53249
G1 X-30.962 Y-52.219 E57.55299
G1 X-30.962 Y-51.86 E57.57258
G1 X30.962 Y-51.86 E60.95057
G1 X30.962 Y-51.235 E60.98465
G1 X-30.962 Y-51.235 E64.36265
G1 X-30.962 Y-50.811 E64.38577
G1 X-35.205 Y-50.811 E64.61725
G1 X-35.406 Y-50.61 E64.63275
G1 X35.406 Y-50.61 E68.49562
G1 X36.031 Y-49.985 E68.54382
G1 X-36.031 Y-49.985 E72.47486
G1 X-36.633 Y-49.383 E72.52132
G1 X-36.633 Y-49.36 E72.52255
G1 X36.633 Y-49.36 E76.51929
G1 X36.633 Y-48.736 E76.55338
G1 X-36.633 Y-48.736 E80.55012
G1 X-36.633 Y-48.111 E80.5842
G1 X36.633 Y-48.111 E84.58094
G1 X36.633 Y-47.975 E84.58833
G1 X38.041 Y-47.975 E84.66512
G1 X38.53 Y-47.486 E84.70288
G1 X-38.53 Y-47.486 E88.90659
G1 X-39.155 Y-46.861 E88.95479
G1 X39.155 Y-46.861 E93.22668
G1 X39.468 Y-46.547 E93.25088
G1 X39.468 Y-46.236 E93.26785
G1 X-39.468 Y-46.236 E97.57397
G1 X-39.468 Y-45.612 E97.60805
G1 X39.468 Y-45.612 E101.91416
G1 X39.468 Y-45.14 E101.9399
G1 X40.876 Y-45.14 E102.01669
G1 X41.029 Y-44.987 E102.0285
G1 X-41.029 Y-44.987 E106.50489
G1 X-41.654 Y-44.362 E106.55309
G1 X41.654 Y-44.362 E111.09765
G1 X42.279 Y-43.737 E111.14586
G1 X-42.279 Y-43.737 E115.75859
G1 X-42.304 Y-43.712 E115.76053
G1 X-42.304 Y-43.112 E115.79324
G1 X42.304 Y-43.112 E120.40873
G1 X42.304 Y-42.487 E120.44281
G1 X-42.304 Y-42.487 E125.0583
G1 X-42.304 Y-42.304 E125.0683
G1 X-43.712 Y-42.304 E125.14509
G1 X-44.153 Y-41.863 E125.17915
G1 X44.153 Y-41.863 E129.99639
G1 X44.778 Y-41.238 E130.04459
G1 X-44.778 Y-41.238 E134.92999
G1 X-45.14 Y-40.876 E134.95789
G1 X-45.14 Y-40.613 E134.97225
G1 X45.14 Y-40.613 E139.89711
G1 X45.14 Y-39.988 E139.93119
G1 X-45.14 Y-39.988 E144.85605
G1 X-45.14 Y-39.468 E144.88441
G1 X-46.547 Y-39.468 E144.9612
G1 X-46.653 Y-39.363 E144.96931
G1 X46.653 Y-39.363 E150.05922
G1 X47.277 Y-38.739 E150.10742
G1 X-47.277 Y-38.739 E155.2655
G1 X-47.902 Y-38.114 E155.31371
G1 X47.902 Y-38.114 E160.53996
G1 X47.975 Y-38.041 E160.5456
G1 X47.975 Y-37.489 E160.57569
G1 X-47.975 Y-37.489 E165.80993
G1 X-47.975 Y-36.864 E165.84401
G1 X47.975 Y-36.864 E171.07824
G1 X47.975 Y-36.633 E171.09086
G1 X49.383 Y-36.633 E171.16765
G1 X49.777 Y-36.239 E171.19801
G1 X-49.777 Y-36.239 E176.62877
G1 X-50.401 Y-35.614 E176.67697
G1 X50.401 Y-35.614 E182.1759
G1 X50.811 Y-35.205 E182.20749
G1 X50.811 Y-34.99 E182.21924
G1 X-50.811 Y-34.99 E187.76285
G1 X-50.811 Y-34.365 E187.79693
G1 X50.811 Y-34.365 E193.34054
G1 X50.811 Y-33.74 E193.37462
G1 X-50.811 Y-33.74 E198.91823
G1 X-50.811 Y-33.115 E198.95231
G1 X50.811 Y-33.115 E204.49592
G1 X50.811 Y-32.49 E204.53
G1 X-50.811 Y-32.49 E210.07361
G1 X-50.811 Y-31.866 E210.1077
G1 X50.811 Y-31.866 E215.6513
G1 X50.811 Y-31.241 E215.68539
G1 X-50.811 Y-31.241 E221.22899
G1 X-50.811 Y-30.962 E221.24422
G1 X-52.219 Y-30.962 E221.32101
G1 X-52.564 Y-30.616 E221.34768
G1 X52.564 Y-30.616 E227.08258
G1 X53.189 Y-29.991 E227.13079
G1 X-53.189 Y-29.991 E232.93386
G1 X-53.647 Y-29.534 E232.96915
G1 X-53.647 Y-29.366 E232.97828
G1 X53.647 Y-29.366 E238.83126
G1 X53.647 Y-28.742 E238.86535
G1 X-53.647 Y-28.742 E244.71833
G1 X-53.647 Y-28.117 E244.75241
G1 X53.647 Y-28.117 E250.60539
G1 X53.647 Y-27.492 E250.63948
G1 X-53.647 Y-27.492 E256.49246
G1 X-53.647 Y-26.867 E256.52654
G1 X53.647 Y-26.867 E262.37952
G1 X53.647 Y-26.242 E262.41361
G1 X-53.647 Y-26.242 E268.26659
G1 X-53.647 Y-25.617 E268.30067
G1 X53.647 Y-25.617 E274.15365
G1 X53.647 Y-25.29 E274.17149
G1 X55.054 Y-25.29 E274.24828
G1 X55.352 Y-24.993 E274.27126
G1 X-55.352 Y-24.993 E280.31031
G1 X-55.977 Y-24.368 E280.35851
G1 X55.977 Y-24.368 E286.46573
G1 X56.482 Y-23.862 E286.50471
G1 X56.482 Y-23.743 E286.51123
G1 X-56.482 Y-23.743 E292.67359
G1 X-56.482 Y-23.118 E292.70767
G1 X56.482 Y-23.118 E298.87002
G1 X56.482 Y-22.493 E298.90411
G1 X-56.482 Y-22.493 E305.06646
G1 X-56.482 Y-21.869 E305.10055
G1 X56.482 Y-21.869 E311.2629
G1 X56.482 Y-21.244 E311.29699
G1 X-56.482 Y-21.244 E317.45934
G1 X-56.482 Y-20.619 E317.49342
G1 X56.482 Y-20.619 E323.65578
G1 X56.482 Y-19.994 E323.68986
G1 X-56.482 Y-19.994 E329.85222
G1 X-56.482 Y-19.369 E329.8863
G1 X56.482 Y-19.369 E336.04865
G1 X56.482 Y-18.744 E336.08274
G1 X-56.482 Y-18.744 E342.24509
G1 X-56.482 Y-18.12 E342.27918
G1 X56.482 Y-18.12 E348.44153
G1 X56.482 Y-17.495 E348.47561
G1 X-56.482 Y-17.495 E354.63797
G1 X-56.482 Y-16.87 E354.67205
G1 X56.482 Y-16.87 E360.83441
G1 X56.482 Y-16.784 E360.83913
G1 X57.89 Y-16.784 E360.91592
G1 X58.428 Y-16.245 E360.95745
G1 X-58.428 Y-16.245 E367.33212
G1 X-59.053 Y-15.62 E367.38032
G1 X59.053 Y-15.62 E373.82316
G1 X59.318 Y-15.356 E373.84359
G1 X59.318 Y-14.996 E373.86323
G1 X-59.318 Y-14.996 E380.33495
G1 X-59.318 Y-14.371 E380.36904
G1 X59.318 Y-14.371 E386.84076
G1 X59.318 Y-13.746 E386.87485
G1 X-59.318 Y-13.746 E393.34658
G1 X-59.318 Y-13.121 E393.38066
G1 X59.318 Y-13.121 E399.85239
G1 X59.318 Y-12.496 E399.88647
G1 X-59.318 Y-12.496 E406.3582
G1 X-59.318 Y-11.872 E406.39228
G1 X59.318 Y-11.872 E412.86401
G1 X59.318 Y-11.247 E412.8981
G1 X-59.318 Y-11.247 E419.36982
G1 X-59.318 Y-10.622 E419.40391
G1 X59.318 Y-10.622 E425.87563
G1 X59.318 Y-9.997 E425.90972
G1 X-59.318 Y-9.997 E432.38145
G1 X-59.318 Y-9.372 E432.41553
G1 X59.318 Y-9.372 E438.88726
G1 X59.318 Y-8.747 E438.92134
G1 X-59.318 Y-8.747 E445.39307
G1 X-59.318 Y-8.123 E445.42715
G1 X59.318 Y-8.123 E451.89888
G1 X59.318 Y-7.498 E451.93297
G1 X-59.318 Y-7.498 E458.40469
G1 X-59.318 Y-6.873 E458.43878
G1 X59.318 Y-6.873 E464.91051
G1 X59.318 Y-6.248 E464.94459
G1 X-59.318 Y-6.248 E471.41632
G1 X-59.318 Y-5.623 E471.4504
G1 X59.318 Y-5.623 E477.92213
G1 X59.318 Y-4.999 E477.95621
G1 X-59.318 Y-4.999 E484.42794
G1 X-59.318 Y-4.374 E484.46203
G1 X59.318 Y-4.374 E490.93375
G1 X59.318 Y-3.749 E490.96784
G1 X-59.318 Y-3.749 E497.43956
G1 X-59.318 Y-3.124 E497.47365
G1 X59.318 Y-3.124 E503.94538
G1 X59.318 Y-2.499 E503.97946
G1 X-59.318 Y-2.499 E510.45119
G1 X-59.318 Y-1.874 E510.48527
G1 X59.318 Y-1.874 E516.957
G1 X59.318 Y-1.25 E516.99108
G1 X-59.318 Y-1.25 E523.46281
G1 X-59.318 Y-.625 E523.4969
G1 X59.318 Y-.625 E529.96862
G1 X59.318 Y0 E530.00271
G1 X-59.318 Y0 E536.47443
G1 X-59.318 Y.625 E536.50852
G1 X59.318 Y.625 E542.98025
G1 X59.318 Y1.25 E543.01433
G1 X-59.318 Y1.25 E549.48606
G1 X-59.318 Y1.874 E549.52014
G1 X59.318 Y1.874 E555.99187
G1 X59.318 Y2.499 E556.02595
G1 X-59.318 Y2.499 E562.49768
G1 X-59.318 Y3.124 E562.53177
G1 X59.318 Y3.124 E569.00349
G1 X59.318 Y3.749 E569.03758
G1 X-59.318 Y3.749 E575.50931
G1 X-59.318 Y4.374 E575.54339
G1 X59.318 Y4.374 E582.01512
G1 X59.318 Y4.998 E582.0492
G1 X-59.318 Y4.998 E588.52093
G1 X-59.318 Y5.623 E588.55501
G1 X59.318 Y5.623 E595.02674
G1 X59.318 Y6.248 E595.06082
G1 X-59.318 Y6.248 E601.53255
G1 X-59.318 Y6.873 E601.56664
G1 X59.318 Y6.873 E608.03836
G1 X59.318 Y7.498 E608.07245
G1 X-59.318 Y7.498 E614.54418
G1 X-59.318 Y8.123 E614.57826
G1 X59.318 Y8.123 E621.04999
G1 X59.318 Y8.747 E621.08407
G1 X-59.318 Y8.747 E627.5558
G1 X-59.318 Y9.372 E627.58988
G1 X59.318 Y9.372 E634.06161
G1 X59.318 Y9.997 E634.0957
G1 X-59.318 Y9.997 E640.56742
G1 X-59.318 Y10.622 E640.60151
G1 X59.318 Y10.622 E647.07323
G1 X59.318 Y11.247 E647.10732
G1 X-59.318 Y11.247 E653.57905
G1 X-59.318 Y11.871 E653.61313
G1 X59.318 Y11.871 E660.08486
G1 X59.318 Y12.496 E660.11894
G1 X-59.318 Y12.496 E666.59067
G1 X-59.318 Y13.121 E666.62475
G1 X59.318 Y13.121 E673.09648
G1 X59.318 Y13.746 E673.13057
G1 X-59.318 Y13.746 E679.60229
G1 X-59.318 Y14.371 E679.63638
G1 X59.318 Y14.371 E686.1081
G1 X59.318 Y14.996 E686.14219
G1 X-59.318 Y14.996 E692.61392
G1 X-59.318 Y15.356 E692.63356
G1 X-59.053 Y15.62 E692.65398
G1 X59.053 Y15.62 E699.09682
G1 X58.428 Y16.245 E699.14503
G1 X-58.428 Y16.245 E705.5197
G1 X-57.89 Y16.783 E705.56123
G1 X-56.482 Y16.783 E705.63802
G1 X-56.482 Y16.87 E705.64274
G1 X56.482 Y16.87 E711.80509
G1 X56.482 Y17.495 E711.83918
G1 X-56.482 Y17.495 E718.00153
G1 X-56.482 Y18.12 E718.03562
G1 X56.482 Y18.12 E724.19797
G1 X56.482 Y18.744 E724.23205
G1 X-56.482 Y18.744 E730.39441
G1 X-56.482 Y19.369 E730.42849
G1 X56.482 Y19.369 E736.59085
G1 X56.482 Y19.994 E736.62493
G1 X-56.482 Y19.994 E742.78728
G1 X-56.482 Y20.619 E742.82137
G1 X56.482 Y20.619 E748.98372
G1 X56.482 Y21.244 E749.01781
G1 X-56.482 Y21.244 E755.18016
G1 X-56.482 Y21.868 E755.21424
G1 X56.482 Y21.868 E761.3766
G1 X56.482 Y22.493 E761.41068
G1 X-56.482 Y22.493 E767.57304
G1 X-56.482 Y23.118 E767.60712
G1 X56.482 Y23.118 E773.76948
G1 X56.482 Y23.743 E773.80356
G1 X-56.482 Y23.743 E779.96591
G1 X-56.482 Y23.862 E779.97243
G1 X-55.977 Y24.368 E780.01142
G1 X55.977 Y24.368 E786.11864
G1 X55.352 Y24.993 E786.16684
G1 X-55.352 Y24.993 E792.20589
G1 X-55.054 Y25.29 E792.22887
G1 X-53.647 Y25.29 E792.30566
G1 X-53.647 Y25.617 E792.3235
G1 X53.647 Y25.617 E798.17648
G1 X53.647 Y26.242 E798.21056
G1 X-53.647 Y26.242 E804.06354
G1 X-53.647 Y26.867 E804.09763
G1 X53.647 Y26.867 E809.95061
G1 X53.647 Y27.492 E809.98469
G1 X-53.647 Y27.492 E815.83767
G1 X-53.647 Y28.117 E815.87176
G1 X53.647 Y28.117 E821.72474
G1 X53.647 Y28.741 E821.75882
G1 X-53.647 Y28.741 E827.6118
G1 X-53.647 Y29.366 E827.64589
G1 X53.647 Y29.366 E833.49887
G1 X53.647 Y29.534 E833.508
G1 X53.189 Y29.991 E833.54329
G1 X-53.189 Y29.991 E839.34636
G1 X-52.564 Y30.616 E839.39457
G1 X52.564 Y30.616 E845.12947
G1 X52.219 Y30.962 E845.15614
G1 X50.811 Y30.962 E845.23293
G1 X50.811 Y31.241 E845.24816
G1 X-50.811 Y31.241 E850.79177
G1 X-50.811 Y31.866 E850.82585
G1 X50.811 Y31.866 E856.36946
G1 X50.811 Y32.49 E856.40354
G1 X-50.811 Y32.49 E861.94715
G1 X-50.811 Y33.115 E861.98123
G1 X50.811 Y33.115 E867.52484
G1 X50.811 Y33.74 E867.55893
G1 X-50.811 Y33.74 E873.10253
G1 X-50.811 Y34.365 E873.13662
G1 X50.811 Y34.365 E878.68022
G1 X50.811 Y34.99 E878.71431
G1 X-50.811 Y34.99 E884.25791
G1 X-50.811 Y35.205 E884.26966
G1 X-50.401 Y35.614 E884.30125
G1 X50.401 Y35.614 E889.80018
G1 X49.777 Y36.239 E889.84838
G1 X-49.777 Y36.239 E895.27914
G1 X-49.383 Y36.633 E895.30951
G1 X-47.975 Y36.633 E895.3863
G1 X-47.975 Y36.864 E895.39891
