; generated by PrusaSlicer 2.4.2+linux-x64-GTK3 on 2023-04-24 at 09:06:18 UTC

; 

; external perimeters extrusion width = 0.40mm
; perimeters extrusion width = 0.40mm
; infill extrusion width = 0.40mm
; solid infill extrusion width = 0.40mm
; top infill extrusion width = 0.40mm
; first layer extrusion width = 0.45mm

M107
;TYPE:Custom
xgcode 1.0
M118 X35.05 Y26.60 Z21.65 T0
M140 S80 T0
M104 S240 T0
M104 S0 T1
M107
M106 S70 ;kickstart partfan
G90 ;absolute
G28 ;autohome all
M132 X Y Z A B
G1 Z50.00 F420
G161 X Y F3300 ;home XY to max
M7 T0 ;stabilize
M6 T0 ;stabilize
M108 T0
M106 S38
;purgeline
G1 Z.20 F420
G92 E0
G1 X-39.15 Y-74.5 F7140
G1 X70 Y-74.5 E17.7325 F600
G1 X70 Y-74.5 E18.2518
G1 X70 Y-74.5 F7140
G1 X70 Y-74.5 E18.8720 F600
G1 X75 Y-74.5 E19.1576
M106 S25
G21 ; set units to millimeters
G90 ; use absolute coordinates
M82 ; use absolute distances for extrusion
G92 E0
; Filament gcode
M107
;LAYER_CHANGE
;Z:0.35
;HEIGHT:0.35
G1 Z.35 F7200
G1 E-5.5 F2100
G92 E0
G1 X4.421 Y45.058 F7200
G1 E5.5 F2100
;TYPE:Skirt/Brim
;WIDTH:0.45
G1 F900
G1 X.868 Y45.407 E5.69474
G1 X-2 Y45.377 E5.85119
G1 X-8.414 Y44.635 E6.20341
G1 X-10.776 Y44.115 E6.33539
G1 X-13.878 Y43.253 E6.51098
G1 X-17.276 Y41.999 E6.70857
G1 X-18.202 Y41.615 E6.76323
G1 X-22.757 Y39.301 E7.04196
G1 X-25.251 Y37.76 E7.20188
G1 X-27.597 Y36.074 E7.35949
G1 X-31.011 Y33.174 E7.60386
G1 X-33.334 Y30.837 E7.7836
G1 X-36.667 Y26.82 E8.06835
G1 X-38.047 Y24.822 E8.20081
G1 X-39.285 Y22.788 E8.33068
G1 X-41.05 Y19.459 E8.53627
G1 X-42.053 Y17.14 E8.67408
G1 X-43.719 Y12.347 E8.95086
G1 X-44.24 Y10.33 E9.06451
G1 X-44.93 Y6.626 E9.27008
G1 X-45.231 Y4.258 E9.40027
G1 X-45.396 Y1.765 E9.53654
G1 X-45.268 Y-3.846 E9.84275
G1 X-44.91 Y-6.761 E10.00293
G1 X-43.741 Y-12.276 E10.31046
G1 X-43.132 Y-14.263 E10.42386
G1 X-41.999 Y-17.284 E10.59988
G1 X-41.03 Y-19.5 E10.73182
G1 X-39.931 Y-21.665 E10.86421
G1 X-36.94 Y-26.44 E11.17159
G1 X-35.366 Y-28.511 E11.31353
G1 X-31.635 Y-32.599 E11.61544
G1 X-28.533 Y-35.346 E11.84148
G1 X-23.615 Y-38.801 E12.16934
G1 X-21.367 Y-40.087 E12.31062
G1 X-18.413 Y-41.512 E12.48953
G1 X-14.657 Y-42.982 E12.70957
G1 X-9.953 Y-44.321 E12.97634
G1 X-4.41 Y-45.206 E13.28255
G1 X.146 Y-45.423 E13.53138
G1 X3.433 Y-45.28 E13.71089
G1 X8.242 Y-44.668 E13.97531
G1 X11.441 Y-43.945 E14.15426
G1 X14.831 Y-42.923 E14.34739
G1 X17.681 Y-41.836 E14.51378
G1 X20.516 Y-40.514 E14.68445
G1 X23.319 Y-38.978 E14.85878
G1 X25.704 Y-37.437 E15.01372
G1 X28.946 Y-34.991 E15.23522
G1 X31.458 Y-32.764 E15.41837
G1 X33.721 Y-30.413 E15.59636
G1 X35.271 Y-28.609 E15.72612
G1 X36.785 Y-26.644 E15.86145
G1 X37.956 Y-24.947 E15.97389
G1 X39.991 Y-21.535 E16.19061
G1 X41.438 Y-18.573 E16.37044
G1 X43.197 Y-14.037 E16.63587
G1 X44.092 Y-10.865 E16.81566
G1 X45.233 Y-4.114 E17.18914
G1 X45.404 Y-.761 E17.37228
G1 X45.373 Y2.079 E17.52723
G1 X45.105 Y5.263 E17.70156
G1 X44.689 Y8.122 E17.85911
G1 X43.777 Y12.108 E18.08223
G1 X42.807 Y15.154 E18.25658
G1 X41.792 Y17.79 E18.41065
G1 X39.991 Y21.535 E18.63738
G1 X37.463 Y25.663 E18.90145
G1 X35.527 Y28.3 E19.07989
G1 X32.306 Y31.912 E19.34391
G1 X29.901 Y34.191 E19.52467
G1 X27.537 Y36.108 E19.69068
G1 X25.112 Y37.848 E19.85347
G1 X20.884 Y40.323 E20.12076
G1 X17.754 Y41.805 E20.30967
G1 X14.894 Y42.901 E20.47672
G1 X12.206 Y43.751 E20.6305
G1 X8.029 Y44.704 E20.86423
G1 X4.48 Y45.052 E21.05875
G1 X4.444 Y44.682 F7200
G1 F900
G1 X.871 Y45.032 E21.2546
G1 X-1.96 Y45.005 E21.40904
G1 X-8.351 Y44.265 E21.76003
G1 X-10.681 Y43.752 E21.89018
G1 X-13.775 Y42.892 E22.06536
G1 X-17.144 Y41.648 E22.26127
G1 X-18.032 Y41.281 E22.31366
G1 X-22.577 Y38.972 E22.59175
G1 X-25.05 Y37.443 E22.7504
G1 X-27.361 Y35.783 E22.90562
G1 X-30.756 Y32.898 E23.14864
G1 X-33.056 Y30.585 E23.32656
G1 X-36.359 Y26.607 E23.60866
G1 X-37.738 Y24.61 E23.74104
G1 X-38.964 Y22.594 E23.86977
G1 X-40.709 Y19.303 E24.07292
G1 X-41.699 Y17.017 E24.20885
G1 X-43.365 Y12.224 E24.48562
G1 X-43.877 Y10.239 E24.59748
G1 X-44.558 Y6.578 E24.80062
G1 X-44.857 Y4.233 E24.92957
G1 X-45.021 Y1.765 E25.06448
G1 X-44.897 Y-3.764 E25.3662
G1 X-44.54 Y-6.702 E25.52767
G1 X-43.379 Y-12.176 E25.83292
G1 X-42.78 Y-14.134 E25.9446
G1 X-41.65 Y-17.146 E26.12007
G1 X-40.696 Y-19.331 E26.25018
G1 X-39.597 Y-21.494 E26.38251
G1 X-36.626 Y-26.234 E26.68767
G1 X-35.089 Y-28.259 E26.82636
G1 X-31.362 Y-32.341 E27.12788
G1 X-28.304 Y-35.049 E27.35074
G1 X-23.402 Y-38.493 E27.67752
G1 X-21.202 Y-39.751 E27.81576
G1 X-18.273 Y-41.164 E27.99316
G1 X-14.538 Y-42.627 E28.21199
G1 X-9.883 Y-43.952 E28.47604
G1 X-4.373 Y-44.833 E28.78043
G1 X.132 Y-45.049 E29.02644
G1 X3.388 Y-44.908 E29.20424
G1 X8.161 Y-44.302 E29.46672
G1 X11.334 Y-43.586 E29.64413
G1 X14.72 Y-42.565 E29.83707
G1 X17.547 Y-41.486 E30.00212
G1 X20.336 Y-40.185 E30.17003
G1 X23.139 Y-38.65 E30.34436
G1 X25.501 Y-37.122 E30.4978
G1 X28.717 Y-34.694 E30.71762
G1 X31.189 Y-32.502 E30.89784
G1 X33.436 Y-30.168 E31.07461
G1 X34.974 Y-28.38 E31.20328
G1 X36.477 Y-26.43 E31.33756
G1 X37.634 Y-24.755 E31.44862
G1 X39.669 Y-21.344 E31.66527
G1 X41.099 Y-18.412 E31.84327
G1 X42.843 Y-13.914 E32.10642
G1 X43.728 Y-10.774 E32.2844
G1 X44.862 Y-4.064 E32.6556
G1 X45.029 Y-.765 E32.8358
G1 X44.999 Y2.048 E32.98924
G1 X44.731 Y5.232 E33.16357
G1 X44.322 Y8.047 E33.31875
G1 X43.419 Y11.995 E33.53966
G1 X42.45 Y15.04 E33.71401
G1 X41.443 Y17.655 E33.86685
G1 X39.669 Y21.344 E34.09018
G1 X37.159 Y25.444 E34.35243
G1 X35.238 Y28.061 E34.52951
G1 X32.039 Y31.649 E34.7917
G1 X29.663 Y33.902 E34.97034
G1 X27.317 Y35.805 E35.13513
G1 X24.894 Y37.543 E35.29779
G1 X20.711 Y39.991 E35.56218
G1 X17.595 Y41.466 E35.75022
G1 X14.762 Y42.55 E35.91571
G1 X12.094 Y43.393 E36.06838
G1 X7.948 Y44.338 E36.30035
G1 X4.504 Y44.676 E36.48911
G1 X4.467 Y44.305 F7200
G1 F900
G1 X.874 Y44.657 E36.68607
G1 X-1.92 Y44.632 E36.8385
G1 X-8.289 Y43.896 E37.18825
G1 X-10.586 Y43.39 E37.31659
G1 X-13.673 Y42.532 E37.49134
G1 X-17.013 Y41.297 E37.68557
G1 X-17.862 Y40.947 E37.73569
G1 X-22.397 Y38.643 E38.01315
G1 X-24.85 Y37.126 E38.17052
G1 X-27.125 Y35.491 E38.32336
G1 X-30.502 Y32.623 E38.56503
G1 X-32.778 Y30.334 E38.74112
G1 X-36.051 Y26.393 E39.02058
G1 X-37.429 Y24.398 E39.15286
G1 X-38.644 Y22.399 E39.28046
G1 X-40.368 Y19.148 E39.48117
G1 X-41.345 Y16.894 E39.61522
G1 X-43.01 Y12.101 E39.89199
G1 X-43.513 Y10.147 E40.00205
G1 X-44.186 Y6.53 E40.20276
G1 X-44.483 Y4.208 E40.33048
G1 X-44.646 Y1.765 E40.46401
G1 X-44.523 Y-3.755 E40.76523
G1 X-44.169 Y-6.644 E40.92401
G1 X-43.018 Y-12.077 E41.22698
G1 X-42.428 Y-14.005 E41.33695
G1 X-41.302 Y-17.007 E41.51186
G1 X-40.361 Y-19.162 E41.64015
G1 X-39.263 Y-21.324 E41.77242
G1 X-36.313 Y-26.029 E42.07536
G1 X-34.812 Y-28.007 E42.21081
G1 X-31.09 Y-32.084 E42.51194
G1 X-28.075 Y-34.753 E42.73161
G1 X-23.189 Y-38.184 E43.05731
G1 X-21.037 Y-39.414 E43.19252
G1 X-18.134 Y-40.816 E43.36839
G1 X-14.419 Y-42.271 E43.58602
G1 X-9.812 Y-43.584 E43.84735
G1 X-4.335 Y-44.46 E44.14992
G1 X.118 Y-44.674 E44.39312
G1 X3.343 Y-44.536 E44.5692
G1 X8.081 Y-43.936 E44.82974
G1 X11.226 Y-43.227 E45.00561
G1 X14.609 Y-42.207 E45.19836
G1 X17.413 Y-41.136 E45.36207
G1 X20.156 Y-39.856 E45.52723
G1 X22.959 Y-38.321 E45.70156
G1 X25.297 Y-36.807 E45.85349
G1 X28.488 Y-34.397 E46.07162
G1 X30.92 Y-32.241 E46.24892
G1 X33.152 Y-29.924 E46.42447
G1 X34.678 Y-28.151 E46.55204
G1 X36.169 Y-26.217 E46.68529
G1 X37.312 Y-24.563 E46.79497
G1 X39.346 Y-21.153 E47.01154
G1 X40.761 Y-18.25 E47.18771
G1 X42.489 Y-13.791 E47.44859
G1 X43.364 Y-10.683 E47.62474
G1 X44.49 Y-4.014 E47.99366
G1 X44.655 Y-.769 E48.17093
G1 X44.625 Y2.016 E48.32287
G1 X44.358 Y5.2 E48.49719
G1 X43.954 Y7.972 E48.64999
G1 X43.062 Y11.881 E48.8687
G1 X42.093 Y14.927 E49.04306
G1 X41.093 Y17.52 E49.19466
G1 X39.346 Y21.153 E49.41458
G1 X36.854 Y25.225 E49.67502
G1 X34.949 Y27.823 E49.85073
G1 X31.773 Y31.385 E50.1111
G1 X29.425 Y33.612 E50.28761
G1 X27.096 Y35.501 E50.45119
G1 X24.676 Y37.238 E50.61372
G1 X20.538 Y39.658 E50.87521
G1 X17.437 Y41.126 E51.06238
G1 X14.63 Y42.199 E51.22631
G1 X11.981 Y43.036 E51.37786
G1 X7.866 Y43.972 E51.60807
G1 X4.527 Y44.299 E51.79107
G1 E46.29107 F2100
G92 E0
G1 X7.627 Y42.642 F7200
G1 E5.5 F2100
;TYPE:Perimeter
G1 F900
G1 X2.289 Y43.175 E5.79261
G1 X1.659 Y43.262 E5.82733
G1 X.854 Y43.307 E5.8713
G1 X-1.821 Y43.285 E6.01725
G1 X-6.395 Y42.77 E6.2683
G1 X-7.242 Y42.704 E6.31469
G1 X-8.041 Y42.569 E6.35885
G1 X-10.263 Y42.079 E6.483
G1 X-11.083 Y41.864 E6.52926
G1 X-13.283 Y41.239 E6.65397
G1 X-13.66 Y41.113 E6.67571
G1 X-16.524 Y40.039 E6.84258
G1 X-17.286 Y39.726 E6.88747
G1 X-21.761 Y37.452 E7.16133
G1 X-22.106 Y37.263 E7.18276
G1 X-24.105 Y36 E7.31173
G1 X-26.293 Y34.428 E7.45873
G1 X-28.961 Y32.21 E7.64798
G1 X-29.577 Y31.64 E7.69378
G1 X-31.21 Y30.056 E7.8179
G1 X-31.763 Y29.444 E7.8629
G1 X-34.965 Y25.59 E8.13623
G1 X-36.301 Y23.655 E8.26451
G1 X-37.482 Y21.712 E8.38853
G1 X-37.898 Y20.973 E8.43478
G1 X-38.963 Y18.958 E8.55914
G1 X-39.77 Y17.201 E8.66457
G1 X-40.077 Y16.43 E8.70986
G1 X-41.721 Y11.699 E8.9831
G1 X-42.294 Y9.419 E9.11136
G1 X-42.717 Y7.183 E9.23549
G1 X-42.849 Y6.345 E9.28175
G1 X-43.138 Y4.088 E9.40588
G1 X-43.296 Y1.744 E9.53406
G1 X-43.174 Y-3.683 E9.83014
G1 X-42.969 Y-5.591 E9.93487
G1 X-42.84 Y-6.411 E9.98015
G1 X-41.824 Y-11.328 E10.25399
G1 X-41.72 Y-11.707 E10.27546
G1 X-41.152 Y-13.566 E10.38148
G1 X-40.367 Y-15.705 E10.5058
G1 X-40.054 Y-16.493 E10.55205
G1 X-39.144 Y-18.577 E10.67611
G1 X-38.08 Y-20.674 E10.80435
G1 X-35.196 Y-25.269 E11.10031
G1 X-33.784 Y-27.13 E11.22773
G1 X-30.126 Y-31.138 E11.5238
G1 X-29.522 Y-31.696 E11.56864
G1 X-27.227 Y-33.702 E11.73494
G1 X-26.576 Y-34.204 E11.77976
G1 X-22.456 Y-37.05 E12.05291
G1 X-20.415 Y-38.216 E12.18114
G1 X-17.986 Y-39.408 E12.32874
G1 X-17.618 Y-39.569 E12.35067
G1 X-14.779 Y-40.707 E12.51751
G1 X-13.999 Y-40.988 E12.56274
G1 X-10.33 Y-42.054 E12.77113
G1 X-9.526 Y-42.265 E12.8165
G1 X-4.173 Y-43.12 E13.11221
G1 X-3.79 Y-43.158 E13.13323
G1 X-.307 Y-43.32 E13.32343
G1 X.091 Y-43.324 E13.34513
G1 X3.211 Y-43.192 E13.51549
G1 X7.428 Y-42.678 E13.74722
G1 X7.815 Y-42.613 E13.76862
G1 X10.466 Y-42.031 E13.91667
G1 X10.854 Y-41.929 E13.93857
G1 X14.185 Y-40.925 E14.12837
G1 X16.897 Y-39.888 E14.28675
G1 X19.535 Y-38.657 E14.44557
G1 X22.279 Y-37.154 E14.61622
G1 X24.547 Y-35.685 E14.76367
G1 X24.876 Y-35.453 E14.7856
G1 X27.318 Y-33.595 E14.95301
G1 X27.637 Y-33.349 E14.97496
G1 X29.975 Y-31.276 E15.14543
G1 X32.147 Y-29.022 E15.31618
G1 X33.625 Y-27.306 E15.43973
G1 X35.074 Y-25.428 E15.56913
G1 X36.17 Y-23.843 E15.67426
G1 X38.165 Y-20.498 E15.88671
G1 X39.529 Y-17.697 E16.05667
G1 X41.076 Y-13.745 E16.28819
G1 X41.205 Y-13.374 E16.30962
G1 X42.046 Y-10.39 E16.47875
G1 X43.038 Y-4.685 E16.7946
G1 X43.147 Y-3.875 E16.83921
G1 X43.305 Y-.753 E17.00972
G1 X43.278 Y1.939 E17.15658
G1 X43.015 Y5.058 E17.32733
G1 X42.628 Y7.719 E17.47402
G1 X41.764 Y11.511 E17.68617
G1 X40.816 Y14.489 E17.85669
G1 X39.847 Y16.998 E18.00341
G1 X38.167 Y20.495 E18.21504
G1 X35.737 Y24.467 E18.469
G1 X33.892 Y26.983 E18.63925
G1 X33.642 Y27.285 E18.66063
G1 X30.797 Y30.453 E18.8929
G1 X30.517 Y30.735 E18.91458
G1 X28.546 Y32.587 E19.06214
G1 X26.285 Y34.423 E19.221
G1 X23.92 Y36.119 E19.37977
G1 X23.211 Y36.55 E19.42503
G1 X19.896 Y38.47 E19.63401
G1 X19.545 Y38.653 E19.65558
G1 X16.898 Y39.888 E19.81495
G1 X14.177 Y40.928 E19.97384
G1 X11.598 Y41.741 E20.12138
G1 X11.225 Y41.839 E20.14241
G1 X10.594 Y41.965 E20.17747
G1 X7.685 Y42.629 E20.34025
G1 X7.687 Y43.013 F7200
G1 F900
G1 X2.334 Y43.547 E20.63375
G1 X1.695 Y43.636 E20.66892
G1 X.863 Y43.682 E20.71438
G1 X-1.844 Y43.66 E20.86205
G1 X-6.43 Y43.143 E21.11382
G1 X-7.288 Y43.076 E21.16077
G1 X-8.112 Y42.937 E21.20635
G1 X-10.351 Y42.444 E21.33141
G1 X-11.182 Y42.226 E21.37828
G1 X-13.393 Y41.598 E21.50368
G1 X-13.786 Y41.466 E21.52625
G1 X-16.661 Y40.388 E21.6938
G1 X-17.442 Y40.067 E21.73983
G1 X-21.936 Y37.784 E22.01483
G1 X-22.296 Y37.587 E22.03722
G1 X-24.314 Y36.311 E22.16744
G1 X-26.522 Y34.725 E22.31577
G1 X-29.208 Y32.492 E22.50627
G1 X-29.835 Y31.912 E22.55286
G1 X-31.48 Y30.316 E22.67789
G1 X-32.047 Y29.689 E22.724
G1 X-35.264 Y25.817 E22.99866
G1 X-36.616 Y23.859 E23.12845
G1 X-37.806 Y21.901 E23.25341
G1 X-38.227 Y21.153 E23.30027
G1 X-39.299 Y19.124 E23.42546
G1 X-40.115 Y17.349 E23.532
G1 X-40.428 Y16.561 E23.57827
G1 X-42.081 Y11.806 E23.85286
G1 X-42.66 Y9.499 E23.98264
G1 X-43.087 Y7.247 E24.10769
G1 X-43.22 Y6.398 E24.15456
G1 X-43.511 Y4.124 E24.2796
G1 X-43.671 Y1.752 E24.4093
G1 X-43.549 Y-3.707 E24.70717
G1 X-43.34 Y-5.641 E24.81327
G1 X-43.208 Y-6.479 E24.85954
G1 X-42.189 Y-11.415 E25.13452
G1 X-42.08 Y-11.811 E25.15693
G1 X-41.508 Y-13.685 E25.26381
G1 X-40.718 Y-15.839 E25.38897
G1 X-40.4 Y-16.637 E25.43583
G1 X-39.483 Y-18.737 E25.56083
G1 X-38.407 Y-20.858 E25.6906
G1 X-35.505 Y-25.482 E25.98838
G1 X-34.073 Y-27.37 E26.11765
G1 X-30.392 Y-31.403 E26.41551
G1 X-29.773 Y-31.975 E26.46151
G1 X-27.465 Y-33.992 E26.62871
G1 X-26.797 Y-34.507 E26.6747
G1 X-22.656 Y-37.368 E26.94926
G1 X-20.591 Y-38.547 E27.07901
G1 X-18.144 Y-39.748 E27.2277
G1 X-17.762 Y-39.915 E27.2504
G1 X-14.912 Y-41.058 E27.41792
G1 X-14.115 Y-41.345 E27.46415
G1 X-10.43 Y-42.415 E27.67346
G1 X-9.609 Y-42.631 E27.71978
G1 X-9.207 Y-42.708 E27.74208
G1 X-4.221 Y-43.492 E28.01744
G1 X-3.817 Y-43.532 E28.03958
G1 X-.318 Y-43.695 E28.23069
G1 X.096 Y-43.699 E28.25325
G1 X3.244 Y-43.566 E28.42516
G1 X7.482 Y-43.049 E28.65803
G1 X7.886 Y-42.981 E28.6804
G1 X10.553 Y-42.395 E28.82936
G1 X10.955 Y-42.29 E28.85203
G1 X14.305 Y-41.28 E29.0429
G1 X17.044 Y-40.234 E29.20282
G1 X19.705 Y-38.992 E29.36301
G1 X22.471 Y-37.476 E29.53508
G1 X24.757 Y-35.995 E29.68367
G1 X25.098 Y-35.756 E29.70637
G1 X27.546 Y-33.892 E29.87424
G1 X27.876 Y-33.638 E29.89695
G1 X30.235 Y-31.547 E30.06892
G1 X32.425 Y-29.275 E30.24105
G1 X33.916 Y-27.543 E30.36572
G1 X35.377 Y-25.649 E30.4962
G1 X36.486 Y-24.046 E30.60255
G1 X38.495 Y-20.677 E30.81656
G1 X39.873 Y-17.848 E30.98821
G1 X41.428 Y-13.875 E31.22094
G1 X41.563 Y-13.487 E31.24334
G1 X42.413 Y-10.467 E31.41447
G1 X43.409 Y-4.742 E31.73146
G1 X43.521 Y-3.909 E31.77732
G1 X43.68 Y-.761 E31.9493
G1 X43.652 Y1.956 E32.09752
G1 X43.388 Y5.101 E32.26965
G1 X42.997 Y7.788 E32.41777
G1 X42.126 Y11.609 E32.6316
G1 X41.169 Y14.614 E32.8036
G1 X40.192 Y17.147 E32.95172
G1 X38.496 Y20.675 E33.16523
G1 X36.05 Y24.674 E33.42098
G1 X34.187 Y27.214 E33.5928
G1 X33.926 Y27.53 E33.61517
G1 X31.069 Y30.71 E33.84835
G1 X30.779 Y31.004 E33.8709
G1 X28.792 Y32.87 E34.01957
G1 X26.512 Y34.721 E34.17978
G1 X24.127 Y36.432 E34.33995
G1 X23.402 Y36.872 E34.3862
G1 X20.076 Y38.799 E34.59586
G1 X19.711 Y38.989 E34.61834
G1 X17.044 Y40.233 E34.77887
G1 X14.3 Y41.282 E34.9391
G1 X11.702 Y42.102 E35.08775
G1 X11.309 Y42.205 E35.1099
G1 X10.673 Y42.331 E35.14528
G1 X7.746 Y43 E35.30906
G1 X7.748 Y43.384 F7200
;TYPE:External perimeter
G1 F900
G1 X2.378 Y43.92 E35.60345
G1 X1.731 Y44.009 E35.63907
G1 X.872 Y44.057 E35.68602
G1 X-1.867 Y44.034 E35.83541
G1 X-6.466 Y43.516 E36.08789
G1 X-7.334 Y43.448 E36.13541
G1 X-8.184 Y43.305 E36.1824
G1 X-10.439 Y42.808 E36.30837
G1 X-11.281 Y42.588 E36.35586
G1 X-13.504 Y41.956 E36.48194
G1 X-13.911 Y41.82 E36.50535
G1 X-16.799 Y40.737 E36.67359
G1 X-17.598 Y40.408 E36.72075
G1 X-22.111 Y38.115 E36.99689
G1 X-22.487 Y37.91 E37.02024
G1 X-24.524 Y36.622 E37.1517
G1 X-26.752 Y35.022 E37.30136
G1 X-29.455 Y32.774 E37.49313
G1 X-30.093 Y32.185 E37.5405
G1 X-31.75 Y30.577 E37.66645
G1 X-32.33 Y29.935 E37.71364
G1 X-35.563 Y26.044 E37.98965
G1 X-36.931 Y24.063 E38.12094
G1 X-38.129 Y22.091 E38.24684
G1 X-38.556 Y21.332 E38.29432
G1 X-39.635 Y19.29 E38.42035
G1 X-40.459 Y17.497 E38.52798
G1 X-40.78 Y16.692 E38.57523
G1 X-42.441 Y11.914 E38.85119
G1 X-43.027 Y9.58 E38.98247
G1 X-43.456 Y7.311 E39.10844
G1 X-43.591 Y6.451 E39.15592
G1 X-43.885 Y4.161 E39.28187
G1 X-44.046 Y1.76 E39.41311
G1 X-43.923 Y-3.731 E39.71276
G1 X-43.712 Y-5.69 E39.82022
G1 X-43.577 Y-6.546 E39.86748
G1 X-42.553 Y-11.503 E40.1436
G1 X-42.44 Y-11.916 E40.16696
G1 X-41.863 Y-13.804 E40.2747
G1 X-41.068 Y-15.973 E40.4007
