;generated by ffslicer 2.2.2 04/17/23 19:56:19
;machine_type: Adventurer 3 Series
;right_extruder_material: PETG
;right_extruder_material_density: 1.27
;filament_diameter0: 1.75
;right_extruder_temperature: 245
;layer_height: 0.18
;perimeter_shells: 3
;top_solid_layers: 4
;bottom_solid_layers: 3
;fill_density: 15%
;fill_pattern: hexagon
;base_print_speed: 50
;travel_speed: 80
;platform_temperature: 80
;right_extruder_temperature_raft0: 250
;right_extruder_temperature_reset: 
;left_extruder_temperature_reset: 
;start gcode
M118 X56.19 Y50.85 Z17.96 T0
M140 S80 T0
M104 S250 T0
M104 S0 T1
M107
G90
G28
M132 X Y Z A B
G1 Z50.000 F420
G161 X Y F3300
M7 T0
M6 T0
M652
;layer_count: 96
M108 T0
G1 X-37.78 Y33.97 F4800
;preExtrude:0.20
G1 Z.200 F420
;structure:pre-extrude
G1 X-37.78 Y33.97 F4800
G1 X-40.82 Y30.32 E.6320 F1200
G1 X-41.14 Y29.90 E.7022
G1 X-42.49 Y27.95 E1.0177
G1 X-42.68 Y27.66 E1.0639
G1 X-44.07 Y25.35 E1.4225
G1 X-44.49 Y24.61 E1.5357
G1 X-45.76 Y22.21 E1.8970
G1 X-45.96 Y21.77 E1.9613
G1 X-46.76 Y20.00 E2.2197
G1 X-47.15 Y18.99 E2.3638
G1 X-48.87 Y14.06 E3.0584
G1 X-49.11 Y13.23 E3.1734
G1 X-49.55 Y11.48 E3.4134
G1 X-49.67 Y10.92 E3.4896
G1 X-50.17 Y8.29 E3.8458
G1 X-50.30 Y7.44 E3.9602
G1 X-50.62 Y4.94 E4.2955
G1 X-50.65 Y4.60 E4.3409
G1 X-50.81 Y2.22 E4.6583
G1 X-50.82 Y1.70 E4.7275
G1 X-50.70 Y-3.98 E5.4833
G1 X-50.63 Y-4.84 E5.5981
G1 X-50.41 Y-6.78 E5.8578
G1 X-50.23 Y-7.81 E5.9969
G1 X-49.17 Y-12.96 E6.6965
G1 X-48.95 Y-13.80 E6.8120
G1 X-48.44 Y-15.51 E7.0494
G1 X-48.25 Y-16.07 E7.1281
G1 X-47.34 Y-18.56 E7.4808
G1 X-47.01 Y-19.38 E7.5984
G1 X-46.00 Y-21.69 E7.9338
G1 X-45.85 Y-22.00 E7.9796
G1 X-44.78 Y-24.12 E8.2955
G1 X-44.52 Y-24.57 E8.3647
G1 X-41.51 Y-29.37 E9.1184
G1 X-41.20 Y-29.81 E9.1900
G1 X-39.76 Y-31.72 E9.5083
G1 X-39.42 Y-32.12 E9.5781
G1 X-35.61 Y-36.29 E10.3296
G1 X-35.25 Y-36.66 E10.3983
G1 X-34.60 Y-37.25 E10.5151
G1 X-32.08 Y-39.46 E10.9610
G1 X-31.24 Y-40.12 E11.1031
G1 X-26.62 Y-43.32 E11.8508
G1 X-26.20 Y-43.59 E11.9172
G1 X-24.13 Y-44.77 E12.2342
G1 X-23.81 Y-44.94 E12.2824
G1 X-21.24 Y-46.20 E12.6632
G1 X-20.53 Y-46.51 E12.7663
G1 X-17.43 Y-47.75 E13.2105
G1 X-16.58 Y-48.06 E13.3309
G1 X-16.23 Y-48.18 E13.3801
G1 X-12.10 Y-49.38 E13.9523
G1 X-11.39 Y-49.56 E14.0497
G1 X-10.90 Y-49.67 E14.1165
G1 X-10.13 Y-49.80 E14.2204
G1 X-5.21 Y-50.57 E14.8829
G1 X-4.22 Y-50.67 E15.0153
G1 X-.82 Y-50.83 E15.4682
G1 X.28 Y-50.85 E15.6145
G1 X2.91 Y-50.75 E15.9647
;raft
;layer:0.40
;support-start
G1 E10.9647 F1500
G1 Z.400 F420
G1 X2.83 Y-49.15 F4800
G1 E15.9647 F1500
;structure:raft
G1 X2.83 Y-49.15 F4200
G1 X3.82 Y-49.09 E16.2286 F480
G1 X8.24 Y-48.55 E17.4134
G1 X9.04 Y-48.41 E17.6295
G1 X11.78 Y-47.81 E18.3758
G1 X12.48 Y-47.63 E18.5682
G1 X15.95 Y-46.58 E19.5328
G1 X16.30 Y-46.46 E19.6313
G1 X19.08 Y-45.40 E20.4229
G1 X19.43 Y-45.25 E20.5242
G1 X21.63 Y-44.21 E21.1717
G1 X22.39 Y-43.86 E21.3944
G1 X25.15 Y-42.34 E22.2327
G1 X25.46 Y-42.16 E22.3281
G1 X27.97 Y-40.53 E23.1245
G1 X28.40 Y-40.22 E23.2655
G1 X31.05 Y-38.20 E24.1521
G1 X31.57 Y-37.78 E24.3300
G1 X33.93 Y-35.70 E25.1670
G1 X34.20 Y-35.44 E25.2667
G1 X35.96 Y-33.62 E25.9404
G1 X36.58 Y-32.96 E26.1814
G1 X38.19 Y-31.09 E26.8379
G1 X38.38 Y-30.85 E26.9194
G1 X39.35 Y-29.59 E27.3425
G1 X39.93 Y-28.83 E27.5969
G1 X41.06 Y-27.20 E28.1246
G1 X41.24 Y-26.92 E28.2132
G1 X42.94 Y-24.07 E29.0962
G1 X43.47 Y-23.15 E29.3787
G1 X44.58 Y-20.88 E30.0510
G1 X45.01 Y-19.94 E30.3261
G1 X46.64 Y-15.80 E31.5100
G1 X46.90 Y-15.02 E31.7287
G1 X47.59 Y-12.61 E32.3957
G1 X47.76 Y-11.96 E32.5745
G1 X47.87 Y-11.48 E32.7055
G1 X48.84 Y-5.86 E34.2230
G1 X48.94 Y-5.30 E34.3744
G1 X49.03 Y-4.63 E34.5543
G1 X49.07 Y-4.22 E34.6639
G1 X49.20 Y-1.72 E35.3300
G1 X49.23 Y-.70 E35.6015
G1 X49.22 Y-.37 E35.6893
G1 X49.21 Y2.02 E36.3253
G1 X49.19 Y2.43 E36.4345
G1 X49.13 Y3.10 E36.6135
G1 X48.93 Y5.53 E37.2623
G1 X48.83 Y6.22 E37.4478
G1 X48.49 Y8.60 E38.0875
G1 X48.42 Y9.00 E38.1955
G1 X47.54 Y12.87 E39.2515
G1 X47.43 Y13.28 E39.3645
G1 X46.47 Y16.27 E40.2001
G1 X46.37 Y16.55 E40.2792
G1 X45.37 Y19.17 E41.0254
G1 X45.21 Y19.54 E41.1326
G1 X43.49 Y23.11 E42.1870
G1 X43.28 Y23.49 E42.3026
G1 X42.89 Y24.15 E42.5066
G1 X40.74 Y27.65 E43.5995
G1 X40.14 Y28.50 E43.8763
G1 X38.64 Y30.53 E44.5480
G1 X38.40 Y30.84 E44.6523
G1 X37.90 Y31.41 E44.8540
G1 X35.15 Y34.47 E45.9487
G1 X34.42 Y35.20 E46.2234
G1 X32.58 Y36.94 E46.8972
G1 X32.30 Y37.18 E46.9954
G1 X29.99 Y39.05 E47.7862
G1 X29.75 Y39.23 E47.8660
G1 X27.33 Y40.97 E48.6591
G1 X27.02 Y41.18 E48.7587
G1 X26.35 Y41.58 E48.9663
G1 X22.79 Y43.64 E50.0607
G1 X22.02 Y44.04 E50.2916
G1 X21.63 Y44.22 E50.4059
G1 X19.43 Y45.25 E51.0523
G1 X19.08 Y45.40 E51.1536
G1 X16.30 Y46.47 E51.9462
G1 X16.02 Y46.56 E52.0244
G1 X13.34 Y47.41 E52.7726
G1 X12.48 Y47.63 E53.0088
G1 X12.07 Y47.71 E53.1199
G1 X8.92 Y48.43 E53.9797
G1 X8.30 Y48.53 E54.1468
G1 X2.68 Y49.09 E55.6496
G1 X1.86 Y49.19 E55.8694
G1 X.86 Y49.24 E56.1358
G1 X-1.94 Y49.21 E56.8809
G1 X-2.46 Y49.18 E57.0194
G1 X-7.28 Y48.64 E58.3100
G1 X-7.87 Y48.59 E58.4675
G1 X-8.32 Y48.54 E58.5880
G1 X-9.22 Y48.38 E58.8312
G1 X-11.63 Y47.85 E59.4878
G1 X-12.58 Y47.60 E59.7492
G1 X-14.95 Y46.93 E60.4045
G1 X-15.66 Y46.69 E60.6039
G1 X-18.74 Y45.54 E61.4787
G1 X-19.51 Y45.22 E61.7006
G1 X-19.88 Y45.05 E61.8089
G1 X-24.31 Y42.80 E63.1310
G1 X-24.91 Y42.48 E63.3119
G1 X-25.28 Y42.28 E63.4239
G1 X-27.24 Y41.04 E64.0410
G1 X-27.48 Y40.88 E64.1177
G1 X-29.63 Y39.33 E64.8230
G1 X-30.32 Y38.80 E65.0545
G1 X-32.84 Y36.69 E65.9290
G1 X-33.62 Y35.98 E66.2097
G1 X-35.39 Y34.26 E66.8664
G1 X-36.06 Y33.53 E67.1300
G1 X-36.44 Y33.08 E67.2867
G1 X-39.57 Y29.33 E68.5864
G1 X-39.84 Y28.96 E68.7083
G1 X-41.16 Y27.05 E69.3261
G1 X-41.32 Y26.81 E69.4028
G1 X-42.69 Y24.55 E70.1060
G1 X-43.08 Y23.85 E70.3192
G1 X-44.32 Y21.49 E71.0286
G1 X-44.51 Y21.09 E71.1464
G1 X-45.29 Y19.38 E71.6465
G1 X-45.65 Y18.44 E71.9144
G1 X-45.74 Y18.15 E71.9952
G1 X-47.34 Y13.57 E73.2860
G1 X-47.56 Y12.81 E73.4965
G1 X-47.99 Y11.11 E73.9631
G1 X-48.10 Y10.60 E74.1020
G1 X-48.59 Y8.02 E74.8007
G1 X-48.71 Y7.21 E75.0186
G1 X-49.03 Y4.76 E75.6760
G1 X-49.06 Y4.47 E75.7536
G1 X-49.21 Y2.15 E76.3722
G1 X-49.22 Y1.70 E76.4920
G1 X-49.10 Y-3.91 E77.9850
G1 X-49.04 Y-4.69 E78.1932
G1 X-48.82 Y-6.55 E78.6915
G1 X-48.66 Y-7.51 E78.9505
G1 X-48.59 Y-7.84 E79.0403
G1 X-47.61 Y-12.60 E80.3334
G1 X-47.41 Y-13.36 E80.5425
G1 X-46.91 Y-15.03 E81.0063
G1 X-46.74 Y-15.54 E81.1494
G1 X-45.84 Y-17.99 E81.8438
G1 X-45.53 Y-18.76 E82.0647
G1 X-44.54 Y-21.03 E82.7237
G1 X-44.42 Y-21.29 E82.7999
G1 X-43.37 Y-23.36 E83.4174
G1 X-43.14 Y-23.75 E83.5379
G1 X-40.17 Y-28.49 E85.0263
G1 X-39.91 Y-28.87 E85.1488
G1 X-38.50 Y-30.72 E85.7677
G1 X-38.21 Y-31.07 E85.8887
G1 X-34.88 Y-34.71 E87.2014
G1 X-34.45 Y-35.19 E87.3728
G1 X-34.14 Y-35.51 E87.4914
G1 X-33.53 Y-36.06 E87.7099
G1 X-31.06 Y-38.23 E88.5847
G1 X-30.29 Y-38.83 E88.8445
G1 X-25.74 Y-41.98 E90.3170
G1 X-25.37 Y-42.21 E90.4329
G1 X-23.36 Y-43.36 E91.0491
G1 X-23.08 Y-43.51 E91.1336
G1 X-20.56 Y-44.75 E91.8809
G1 X-19.91 Y-45.03 E92.0692
G1 X-16.86 Y-46.26 E92.9443
G1 X-16.06 Y-46.55 E93.1707
G1 X-15.76 Y-46.65 E93.2548
G1 X-11.67 Y-47.83 E94.3875
G1 X-11.02 Y-48.00 E94.5663
G1 X-10.59 Y-48.09 E94.6832
G1 X-9.87 Y-48.22 E94.8778
G1 X-5.00 Y-48.99 E96.1898
G1 X-4.11 Y-49.08 E96.4278
G1 X-.77 Y-49.23 E97.3174
G1 X.26 Y-49.25 E97.5915
G1 X2.83 Y-49.15 E98.2758
G1 E93.2758 F1500
G1 X-40.87 Y-25.86 F4800
G1 E98.2758 F1500
G1 X-40.87 Y-25.86 F4200
G1 X-25.70 Y-41.04 E103.9861 F480
G1 X-24.96 Y-41.53 E104.2223
G1 X-22.98 Y-42.66 E104.8289
G1 X-22.71 Y-42.80 E104.9098
G1 X-20.24 Y-44.01 E105.6417
G1 X-19.59 Y-44.30 E105.8310
G1 X-16.58 Y-45.51 E106.6942
G1 X-15.51 Y-45.89 E106.9964
G1 X-14.86 Y-46.07 E107.1758
G1 X-46.15 Y-14.78 E118.9501
G1 X-46.64 Y-13.16 E119.4004
G1 X-46.83 Y-12.42 E119.6037
G1 X-47.89 Y-7.24 E121.0106
G1 X-7.32 Y-47.81 E136.2769
G1 X-4.90 Y-48.19 E136.9287
G1 X-4.05 Y-48.28 E137.1561
G1 X-.91 Y-48.42 E137.9925
G1 X-48.36 Y-.97 E155.8477
G1 X-48.42 Y1.70 E156.5583
G1 X-48.41 Y2.12 E156.6701
G1 X-48.26 Y4.39 E157.2754
G1 X-48.23 Y4.70 E157.3583
G1 X4.65 Y-48.18 E177.2568
G1 X8.12 Y-47.76 E178.1868
G1 X8.90 Y-47.62 E178.3977
G1 X9.72 Y-47.44 E178.6211
G1 X-47.45 Y9.73 E200.1339
G1 X-47.32 Y10.43 E200.3233
G1 X-47.21 Y10.92 E200.4569
G1 X-46.79 Y12.62 E200.9229
G1 X-46.58 Y13.33 E201.1199
G1 X-46.23 Y14.32 E201.3993
G1 X14.32 Y-46.24 E224.1859
G1 X15.72 Y-45.82 E224.5748
G1 X16.01 Y-45.72 E224.6564
G1 X18.61 Y-44.72 E225.3976
G1 X-44.72 Y18.61 E249.2284
G1 X-44.55 Y19.07 E249.3589
G1 X-43.79 Y20.75 E249.8495
G1 X-43.61 Y21.13 E249.9614
G1 X-42.86 Y22.55 E250.3887
G1 X22.54 Y-42.86 E275.0003
G1 X24.74 Y-41.65 E275.6684
G1 X25.03 Y-41.48 E275.7578
G1 X26.21 Y-40.72 E276.1313
G1 X-40.74 Y26.23 E301.3243
G1 X-40.49 Y26.62 E301.4475
G1 X-39.19 Y28.49 E302.0535
G1 X-38.94 Y28.83 E302.1658
G1 X-38.30 Y29.59 E302.4302
G1 X29.59 Y-38.30 E327.9768
G1 X30.55 Y-37.58 E328.2962
G1 X31.05 Y-37.17 E328.4682
G1 X32.76 Y-35.66 E329.0752
G1 X-35.66 Y32.76 E354.8214
G1 X-35.46 Y33.01 E354.9065
G1 X-34.82 Y33.70 E355.1570
G1 X-33.06 Y35.40 E355.8081
G1 X-32.77 Y35.67 E355.9135
G1 X35.66 Y-32.77 E381.6653
G1 X36.00 Y-32.41 E381.7970
G1 X37.57 Y-30.58 E382.4386
G1 X38.32 Y-29.62 E382.7627
G1 X-29.62 Y38.32 E408.3283
G1 X-29.14 Y38.70 E408.4912
G1 X-27.02 Y40.22 E409.1853
G1 X-26.23 Y40.73 E409.4354
G1 X40.72 Y-26.22 E434.6284
G1 X42.25 Y-23.66 E435.4220
G1 X42.77 Y-22.77 E435.6963
G1 X42.86 Y-22.56 E435.7570
G1 X-22.51 Y42.81 E460.3555
G1 X-19.53 Y44.33 E461.2456
G1 X-19.20 Y44.48 E461.3421
G1 X-18.62 Y44.72 E461.5091
G1 X44.69 Y-18.58 E485.3305
G1 X45.88 Y-15.53 E486.2016
G1 X46.13 Y-14.79 E486.4094
G1 X46.26 Y-14.35 E486.5315
G1 X-14.36 Y46.27 E509.3426
G1 X-12.38 Y46.83 E509.8901
G1 X-11.43 Y47.07 E510.1508
G1 X-9.73 Y47.44 E510.6137
G1 X47.37 Y-9.66 E532.1002
G1 X48.05 Y-5.72 E533.1641
G1 X48.15 Y-5.17 E533.3128
G1 X48.21 Y-4.70 E533.4389
G1 X-4.62 Y48.13 E553.3186
G1 X-2.40 Y48.38 E553.9130
G1 X-1.91 Y48.41 E554.0437
G1 X.88 Y48.43 E554.7860
G1 X48.41 Y.90 E572.6714
G1 X48.41 Y2.00 E572.9640
G1 X48.33 Y3.03 E573.2389
G1 X48.13 Y5.42 E573.8771
G1 X47.88 Y7.24 E574.3659
G1 X7.29 Y47.83 E589.6397
G1 X8.19 Y47.74 E589.8804
G1 X8.77 Y47.65 E590.0366
G1 X11.90 Y46.93 E590.8911
G1 X12.32 Y46.85 E591.0049
G1 X13.11 Y46.64 E591.2224
G1 X14.82 Y46.10 E591.6995
G1 X46.09 Y14.83 E603.4663
G1 X45.72 Y16.00 E603.7927
G1 X45.63 Y16.26 E603.8660
G1 X44.62 Y18.88 E604.6131
G1 X44.48 Y19.19 E604.7036
G1 X42.77 Y22.76 E605.7569
G1 X42.59 Y23.10 E605.8592
G1 X42.21 Y23.73 E606.0550
G1 X40.96 Y25.77 E606.6916
G1 X25.68 Y41.04 E612.4395
;support-end
;layer:0.30
;support-start
M104 S245 T0
G1 E607.4395 F1500
G1 Z.700 F420
G1 X2.83 Y-49.15 F4800
G1 E612.4395 F1500
G1 X2.83 Y-49.15 F4800
G1 X3.82 Y-49.09 E612.4890 F1800
G1 X8.24 Y-48.55 E612.7111
G1 X9.04 Y-48.41 E612.7517
G1 X11.78 Y-47.81 E612.8916
G1 X12.48 Y-47.63 E612.9276
G1 X15.95 Y-46.58 E613.1085
G1 X16.30 Y-46.46 E613.1270
G1 X19.08 Y-45.40 E613.2754
G1 X19.43 Y-45.25 E613.2944
G1 X21.63 Y-44.21 E613.4158
G1 X22.39 Y-43.86 E613.4575
G1 X25.15 Y-42.34 E613.6147
G1 X25.46 Y-42.16 E613.6326
G1 X27.97 Y-40.53 E613.7819
G1 X28.40 Y-40.22 E613.8083
G1 X31.05 Y-38.20 E613.9746
G1 X31.57 Y-37.78 E614.0080
G1 X33.93 Y-35.70 E614.1649
G1 X34.20 Y-35.44 E614.1836
G1 X35.96 Y-33.62 E614.3099
G1 X36.58 Y-32.96 E614.3551
G1 X38.19 Y-31.09 E614.4782
G1 X38.38 Y-30.85 E614.4934
G1 X39.35 Y-29.59 E614.5728
G1 X39.93 Y-28.83 E614.6204
G1 X41.06 Y-27.20 E614.7194
G1 X41.24 Y-26.92 E614.7360
G1 X42.94 Y-24.07 E614.9016
G1 X43.47 Y-23.15 E614.9546
G1 X44.58 Y-20.88 E615.0807
G1 X45.01 Y-19.94 E615.1322
G1 X46.64 Y-15.80 E615.3542
G1 X46.90 Y-15.02 E615.3952
G1 X47.59 Y-12.61 E615.5203
G1 X47.76 Y-11.96 E615.5538
G1 X47.87 Y-11.48 E615.5783
G1 X48.84 Y-5.86 E615.8628
G1 X48.94 Y-5.30 E615.8912
G1 X49.03 Y-4.63 E615.9250
G1 X49.07 Y-4.22 E615.9455
G1 X49.20 Y-1.72 E616.0704
G1 X49.23 Y-.70 E616.1214
G1 X49.22 Y-.37 E616.1378
G1 X49.21 Y2.02 E616.2571
G1 X49.19 Y2.43 E616.2776
G1 X49.13 Y3.10 E616.3111
G1 X48.93 Y5.53 E616.4328
G1 X48.83 Y6.22 E616.4676
G1 X48.49 Y8.60 E616.5875
G1 X48.42 Y9.00 E616.6078
G1 X47.54 Y12.87 E616.8058
G1 X47.43 Y13.28 E616.8270
G1 X46.47 Y16.27 E616.9837
G1 X46.37 Y16.55 E616.9984
G1 X45.37 Y19.17 E617.1384
G1 X45.21 Y19.54 E617.1585
G1 X43.49 Y23.11 E617.3562
G1 X43.28 Y23.49 E617.3779
G1 X42.89 Y24.15 E617.4162
G1 X40.74 Y27.65 E617.6211
G1 X40.14 Y28.50 E617.6730
G1 X38.64 Y30.53 E617.7990
G1 X38.40 Y30.84 E617.8185
G1 X37.90 Y31.41 E617.8563
G1 X35.15 Y34.47 E618.0616
G1 X34.42 Y35.20 E618.1131
G1 X32.58 Y36.94 E618.2394
G1 X32.30 Y37.18 E618.2578
G1 X29.99 Y39.05 E618.4060
G1 X29.75 Y39.23 E618.4210
G1 X27.33 Y40.97 E618.5697
G1 X27.02 Y41.18 E618.5883
G1 X26.35 Y41.58 E618.6273
G1 X22.79 Y43.64 E618.8325
G1 X22.02 Y44.04 E618.8758
G1 X21.63 Y44.22 E618.8972
G1 X19.43 Y45.25 E619.0184
G1 X19.08 Y45.40 E619.0374
G1 X16.30 Y46.47 E619.1860
G1 X16.02 Y46.56 E619.2007
G1 X13.34 Y47.41 E619.3410
G1 X12.48 Y47.63 E619.3853
G1 X12.07 Y47.71 E619.4061
G1 X8.92 Y48.43 E619.5673
G1 X8.30 Y48.53 E619.5986
G1 X2.68 Y49.09 E619.8803
G1 X1.86 Y49.19 E619.9215
G1 X.86 Y49.24 E619.9715
G1 X-1.94 Y49.21 E620.1112
G1 X-2.46 Y49.18 E620.1372
G1 X-7.28 Y48.64 E620.3792
G1 X-7.87 Y48.59 E620.4087
G1 X-8.32 Y48.54 E620.4313
G1 X-9.22 Y48.38 E620.4769
G1 X-11.63 Y47.85 E620.6000
G1 X-12.58 Y47.60 E620.6490
G1 X-14.95 Y46.93 E620.7719
G1 X-15.66 Y46.69 E620.8093
G1 X-18.74 Y45.54 E620.9733
G1 X-19.51 Y45.22 E621.0149
G1 X-19.88 Y45.05 E621.0352
G1 X-24.31 Y42.80 E621.2831
G1 X-24.91 Y42.48 E621.3170
G1 X-25.28 Y42.28 E621.3380
G1 X-27.24 Y41.04 E621.4537
G1 X-27.48 Y40.88 E621.4681
G1 X-29.63 Y39.33 E621.6004
G1 X-30.32 Y38.80 E621.6438
G1 X-32.84 Y36.69 E621.8078
G1 X-33.62 Y35.98 E621.8604
G1 X-35.39 Y34.26 E621.9835
G1 X-36.06 Y33.53 E622.0330
G1 X-36.44 Y33.08 E622.0623
G1 X-39.57 Y29.33 E622.3061
G1 X-39.84 Y28.96 E622.3289
G1 X-41.16 Y27.05 E622.4447
G1 X-41.32 Y26.81 E622.4591
G1 X-42.69 Y24.55 E622.5910
G1 X-43.08 Y23.85 E622.6309
G1 X-44.32 Y21.49 E622.7639
G1 X-44.51 Y21.09 E622.7860
G1 X-45.29 Y19.38 E622.8798
G1 X-45.65 Y18.44 E622.9300
G1 X-45.74 Y18.15 E622.9451
G1 X-47.34 Y13.57 E623.1872
G1 X-47.56 Y12.81 E623.2266
G1 X-47.99 Y11.11 E623.3142
G1 X-48.10 Y10.60 E623.3402
G1 X-48.59 Y8.02 E623.4712
G1 X-48.71 Y7.21 E623.5120
G1 X-49.03 Y4.76 E623.6353
G1 X-49.06 Y4.47 E623.6499
G1 X-49.21 Y2.15 E623.7658
G1 X-49.22 Y1.70 E623.7883
G1 X-49.10 Y-3.91 E624.0682
G1 X-49.04 Y-4.69 E624.1072
G1 X-48.82 Y-6.55 E624.2006
G1 X-48.66 Y-7.51 E624.2492
G1 X-48.59 Y-7.84 E624.2660
G1 X-47.61 Y-12.60 E624.5084
G1 X-47.41 Y-13.36 E624.5476
G1 X-46.91 Y-15.03 E624.6347
G1 X-46.74 Y-15.54 E624.6615
G1 X-45.84 Y-17.99 E624.7917
G1 X-45.53 Y-18.76 E624.8331
G1 X-44.54 Y-21.03 E624.9566
G1 X-44.42 Y-21.29 E624.9710
G1 X-43.37 Y-23.36 E625.0868
G1 X-43.14 Y-23.75 E625.1093
G1 X-40.17 Y-28.49 E625.3884
G1 X-39.91 Y-28.87 E625.4114
G1 X-38.50 Y-30.72 E625.5275
G1 X-38.21 Y-31.07 E625.5501
G1 X-34.88 Y-34.71 E625.7963
G1 X-34.45 Y-35.19 E625.8284
G1 X-34.14 Y-35.51 E625.8507
G1 X-33.53 Y-36.06 E625.8916
G1 X-31.06 Y-38.23 E626.0556
G1 X-30.29 Y-38.83 E626.1043
G1 X-25.74 Y-41.98 E626.3804
G1 X-25.37 Y-42.21 E626.4021
G1 X-23.36 Y-43.36 E626.5177
G1 X-23.08 Y-43.51 E626.5336
G1 X-20.56 Y-44.75 E626.6737
G1 X-19.91 Y-45.03 E626.7090
G1 X-16.86 Y-46.26 E626.8731
G1 X-16.06 Y-46.55 E626.9156
G1 X-15.76 Y-46.65 E626.9313
G1 X-11.67 Y-47.83 E627.1436
G1 X-11.02 Y-48.00 E627.1771
G1 X-10.59 Y-48.09 E627.1991
G1 X-9.87 Y-48.22 E627.2356
G1 X-5.00 Y-48.99 E627.4816
G1 X-4.11 Y-49.08 E627.5262
G1 X-.77 Y-49.23 E627.6930
G1 X.26 Y-49.25 E627.7444
G1 X2.83 Y-49.15 E627.8727
G1 E622.8727 F1500
G1 X39.13 Y-29.53 F4800
G1 E627.8727 F1500
G1 X39.13 Y-29.53 F4800
G1 X29.65 Y-39.02 E628.5419 F1800
G1 X28.28 Y-40.06 E628.6277
G1 X27.86 Y-40.36 E628.6535
G1 X25.35 Y-41.99 E628.8028
G1 X25.04 Y-42.17 E628.8206
G1 X24.03 Y-42.73 E628.8783
G1 X42.74 Y-24.02 E630.1983
G1 X43.29 Y-23.06 E630.2535
G1 X44.40 Y-20.80 E630.3792
G1 X44.69 Y-20.16 E630.4142
G1 X20.17 Y-44.68 E632.1442
